!!!!SEGMENT: pl-stab--3b--001-001_rodowski-aleksander--modlitwa-in-b-przed-oczy-twoie.krn
!!!cenid: 18xx:3422
!!!COM: Rodowski, Aleksander
!!!COM-rismID: pe30009627
!!!CDT: <1790->1810
!!!CNT: Polish
!!!OPR: Modlitwa in B
!!!OTL: Przed oczy twoie
!!!OMV: 001
!!!PDT: 1806
!!!AGN:
!!!SMS-siglum: PL-STAb
!!!SMS-shelfmark: 3b
!!!SMS-shelfwork: 001-001 M
!!!SMS-variant: Canto.: PL-STAb 3b:10-11
!!!SMS-altvar: Canto: PL-STAb 3b:16
!!!NIFC-rismSourceID: 301050648
!!!NIFC-islandoraID: pl-stab:961
!!!URL-pdf-islandora: https://repozytorium.nifc.pl/islandora/object/pl-stab%3A961/datastream/PDF/view
!!!URL-scan: https://polish.musicsources.pl/pl/lokalizacje/galeria/rekopisy/4501 @EN{Scan on Polish Music Sources Website} @PL{Skany w portalu Dziedzictwo Muzyki Polskiej w otwartym dostępie}
!!!ONB-nifc: UWAGA: części Modlitwy: 1. Przed oczy twoie (Adagio), 2. Umysł utrapieniem (Moderatto), 3. Życie w uciskach (Adagio), 4. Jeżeli sprawiedliwie (Moderato), 5. Wyznawamy (Adagio), 6. Kiedy nas karzesz (Adagio), 7. Oto nas masz (Andante), 8. Racz nam tedy dać (Allegro)
!!!AIN: 1 bass 1 organ 1 soprn 1 tenor 2 violn
!!!key: B-
**kern	**kern	**dynam	**kern	**kern	**kern	**text	**dynam	**kern	**text	**kern	**text
*part6	*part6	*part6	*part5	*part4	*part3	*part3	*part3	*part2	*part2	*part1	*part1
*staff7	*staff6	*	*staff5	*staff4	*staff3	*staff3	*	*staff2	*staff2	*staff1	*staff1
*	*	*	*group2	*group2	*group1	*	*	*group1	*	*group1	*
*I"Organo	*	*	*I"Violino Secundo	*I"Violino Primo	*I"Baſso	*	*	*I"Tenor	*	*I"Canto.	*
*I'org	*	*	*I'vl 2	*I'vl 1	*I'B	*	*	*I'T	*	*I'S	*
*Iorgan	*	*	*Ivioln	*Ivioln	*Ibass	*	*	*Itenor	*	*Isoprn	*
*ICklav	*	*	*ICstr	*ICstr	*ICvox	*	*	*ICvox	*	*ICvox	*
*IGacmp	*	*	*IGacmp	*IGacmp	*IGcoro	*	*	*IGcoro	*	*IGcoro	*
*clefF4	*clefG2	*	*clefG2	*clefG2	*clefF4	*	*	*clefC4	*	*clefC1	*
*k[b-e-]	*k[b-e-]	*	*k[b-e-]	*k[b-e-]	*k[b-e-]	*	*	*k[b-e-]	*	*k[b-e-]	*
*B-:	*B-:	*	*B-:	*B-:	*B-:	*	*	*B-:	*	*B-:	*
*M3/4	*M3/4	*	*M3/4	*M3/4	*M3/4	*	*	*M3/4	*	*M3/4	*
=1	=1	=1	=1	=1	=1	=1	=1	=1	=1	=1	=1
!	!	!	!LO:TX:a:t=53.	!LO:TX:a:t=53.	!	!	!	!	!	!	!
!	!LO:TX:a:B:t=Adagio	!	!LO:TX:a:B:t=Adagio	!LO:TX:a:B:t=Adagio	!LO:TX:a:B:t=Adagio	!	!	!LO:TX:a:B:t=Adagio	!	!LO:TX:a:B:t=Adagio	!
4BB-/	4dd 4b- 4f\	.	0.r	0.r	4B-\	Przed	.	4f\	Przed	4dd\	Przed
4B-\	4dd 4b- 4f\	.	.	.	4B-\	o-	.	4f\	o-	4dd\	o-
4B-\	4dd 4b- 4f\	.	.	.	4B-\	-czy	.	4f\	-czy	4dd\	-czy
.	16qqdd/LL	.	.	.	.	.	.	.	.	.	.
.	16qqff/JJ	.	.	.	.	.	.	.	.	.	.
=2	=2	=2	=2	=2	=2	=2	=2	=2	=2	=2	=2
*	*^	*	*	*	*	*	*	*	*	*	*
.	8qqff/	.	.	.	.	.	.	.	.	.	.	.
4c\	4ff 4cc\ 4f	2ryy	.	.	.	4c\	two-	.	4f\	Two-	4ee-\	two-
.	8qqee-/	.	.	.	.	.	.	.	.	.	.	.
4F\	4cc 4a\ 4f	.	.	.	.	4A\	-ie	.	4f\	-ie	4cc\	-ie
*	*Xtuplet	*	*	*	*	*	*	*	*	*	*	*
4r	12b-L 12g/	4r	.	.	.	4r	.	.	4r	.	4r	.
.	12cc 12a/	.	.	.	.	.	.	.	.	.	.	.
.	12ddJ 12b-/	.	.	.	.	.	.	.	.	.	.	.
*	*v	*v	*	*	*	*	*	*	*	*	*	*
=3	=3	=3	=3	=3	=3	=3	=3	=3	=3	=3	=3
*	*	*	*	*	*	*ij	*	*	*ij	*	*ij
4F\	4ee- 4cc\	.	.	.	4c\	Przed	.	4A\	Przed	4ee-\	Przed
4A\	4ee- 4cc\	.	.	.	4c\	o-	.	4A\	o-	4ee-\	o-
4F\	4ee- 4cc\	.	.	.	4c\	-czy	.	4A\	-czy	4ee-\	-czy
.	16qqee-/LL	.	.	.	.	.	.	.	.	.	.
.	16qqgg/JJ	.	.	.	.	.	.	.	.	.	.
=4	=4	=4	=4	=4	=4	=4	=4	=4	=4	=4	=4
*	*^	*	*	*	*	*	*	*	*	*	*
.	8qqgg/	.	.	.	.	.	.	.	.	.	.	.
4B-\	4ff\ 4cc	2ryy	.	.	.	4d\	two-	.	4B-\	Two-	4ff\	two-
4BB-/	4cc\ 4a	.	.	.	.	4B-\	-ie	.	4F\	-ie	4dd\	-ie
*	*	*	*	*	*	*	*	*	*	*	*	*Xij
4r	12ccL 12a/	4r	.	.	.	4r	.	.	4r	.	4r	.
.	12dd 12b-/	.	.	.	.	.	.	.	.	.	.	.
.	12ee-J 12cc/	.	.	.	.	.	.	.	.	.	.	.
*	*v	*v	*	*	*	*	*	*	*	*	*	*
=5	=5	=5	=5	=5	=5	=5	=5	=5	=5	=5	=5
!LO:TX:t=P:problem=mixed beam	!	!	!	!	!	!	!	!	!	!	!
8DD/L	4ff 4dd 4b-\	.	0.r	0.r	4B-\	Przed	.	4d\	Przed	4ff\	Przed
8D\	.	.	.	.	.	.	.	.	.	.	.
*tremolo	*	*	*	*	*	*	*	*	*	*	*
8D\	4ff 4dd 4b-\	.	.	.	4B-\	o-	.	4d\	o-	4ff\	o-
8D\	.	.	.	.	.	.	.	.	.	.	.
8D\	4ff 4dd 4b-\	.	.	.	4B-\	-czy	.	4d\	-czy	4ff\	-czy
8D\J	.	.	.	.	.	.	.	.	.	.	.
*Xtremolo	*	*	*	*	*	*	*	*	*	*	*
!	!	!	!	!	!	!	!	!	!	!LO:LB:g=original	!
=6	=6	=6	=6	=6	=6	=6	=6	=6	=6	=6	=6
*	*2\right	*	*	*	*2\right	*	*	*2\right	*	*2\right	*
!LO:TX:t=P:problem=mixed beam	!	!	!	!	!	!	!	!	!	!	!
8EE-/L	2gg 2ee- 2b-\	.	.	.	2B-\	two-	.	2e-\	two-	2gg\	two-
8E-\	.	.	.	.	.	.	.	.	.	.	.
*tremolo	*	*	*	*	*	*	*	*	*	*	*
8E-\	.	.	.	.	.	.	.	.	.	.	.
8E-\	.	.	.	.	.	.	.	.	.	.	.
8E-\	16ff\LL	.	.	.	4G\	-ie	.	4c\	-ie	16ff\LL	-ie
*	*	*	*	*	*	*Xij	*	*	*Xij	*	*
.	16ee-\	.	.	.	.	.	.	.	.	16ee-\	.
8E-\J	16dd\	.	.	.	.	.	.	.	.	16dd\	.
.	16cc\JJ	.	.	.	.	.	.	.	.	16cc\JJ	.
*Xtremolo	*	*	*	*	*	*	*	*	*	*	*
!LO:LB:g=original	!LO:LB:g=original	!	!	!	!	!	!	!	!	!	!
=7	=7	=7	=7	=7	=7	=7	=7	=7	=7	=7	=7
*2\right	*	*	*	*	*	*	*	*	*	*	*
2F\	8b-/L	.	.	.	8F\	wi-	.	8d\	wi-	8b-\	wi-
.	8a/	.	.	.	8F\	-ny	.	8c\	-ny	8a\	-ny
.	8a/	.	.	.	4F\	na-	.	8c\L	na-	8a\L	na-
.	8cc/J	.	.	.	.	.	.	8A\J	.	8cc\J	.
!	!LO:TX:t=P:problem=mixed beam	!	!	!	!	!	!	!	!	!	!
4FF/	8ff\L	.	.	.	8F\	-sze	.	8A\	-sze	8ff\	-sze
.	8aJ 8e-/	.	.	.	8F\	skła-	.	8E-/	skła-	8a\	skła-
!	!	!	!	!	!LO:LB:g=original	!	!	!	!	!	!
=8	=8	=8	=8	=8	=8	=8	=8	=8	=8	=8	=8
4BB-/	8ccL 8e-/	.	.	.	4F\	-da-	.	8E-/L	-da-	8cc\L	-da-
.	8b-J 8d/	.	.	.	.	.	.	8D/J	.	8b-\J	.
4B-\	4b- 4d/	.	.	.	4BB-/	-my	.	4D/	-my	4b-\	-my
4r	8r	.	.	.	4r	.	.	8r	.	8r	.
.	8dd 8b-\	.	.	.	.	.	.	8B-\	skła-	8dd\	skła-
!	!	!	!	!	!	!	!	!LO:LB:g=original	!	!	!
=9	=9	=9	=9	=9	=9	=9	=9	=9	=9	=9	=9
!LO:TX:t=P:problem=mixed beam	!	!	!	!	!	!	!	!	!	!	!
8FF/L	8ddL 8bn\	.	0.r	0.r	2.r	.	.	8Bn\L	-da-	8dd\L	-da-
8F\	8ee-J 8cc\	.	.	.	.	.	.	8c\J	.	8ee-\J	.
8F\	4ee- 4cc\	.	.	.	.	.	.	4c\	-my	4ee-\	-my
8F\	.	.	.	.	.	.	.	.	.	.	.
8F\	8r	.	.	.	.	.	.	4c#X\	skła-	8r	.
8F\J	8ee- 8cc\	.	.	.	.	.	.	.	.	8ee-\	skła-
!	!	!	!	!	!	!	!	!	!	!LO:LB:g=original	!
=10	=10	=10	=10	=10	=10	=10	=10	=10	=10	=10	=10
!LO:TX:t=P:problem=mixed beam	!	!	!	!	!	!	!	!	!	!	!
8BB-/L	8eenL 8cc#X\	.	.	.	4r	.	.	8c#X\L	-da-	8een\L	-da-
8B-\J	8ffJ 8dd\	.	.	.	.	.	.	8d\J	.	8ff\J	.
4B-\	4ff 4dd\	.	.	.	4r	.	.	4d\	-my	4ff\	-my
16r	16r	.	.	.	8r	.	.	4r	.	4r	.
16F\LL	16f/LL	.	.	.	.	.	.	.	.	.	.
*	*	*	*	*	*Xtuplet	*	*	*	*	*	*
16G\	16g/	.	.	.	24F\LL	przed	.	.	.	.	.
.	.	.	.	.	24G\	.	.	.	.	.	.
16A\JJ	16a/JJ	.	.	.	.	.	.	.	.	.	.
.	.	.	.	.	24A\JJ	.	.	.	.	.	.
=11	=11	=11	=11	=11	=11	=11	=11	=11	=11	=11	=11
4.B-\	4.b-/	.	.	.	4.B-\	o-	.	2.r	.	2.r	.
8F\L	8f/L	.	.	.	8F\	-czy	.	.	.	.	.
8D\	8d/	.	.	.	8D/	two-	.	.	.	.	.
8BB-\J	8B-/J	.	.	.	8BB-/	-ie	.	.	.	.	.
=12	=12	=12	=12	=12	=12	=12	=12	=12	=12	=12	=12
*	*2\right	*	*	*	*	*	*	*	*	*	*
!LO:TX:t=P:problem=mixed beam	!	!	!	!	!	!	!	!	!	!	!
8EE-/L	2gg 2ee- 2b-\	.	.	.	2A\	wi-	.	2e-\	wi-	2gg\	wi-
8E-\	.	.	.	.	.	.	.	.	.	.	.
8E-\	.	.	.	.	.	.	.	.	.	.	.
8E-\	.	.	.	.	.	.	.	.	.	.	.
8D\	4ff 4dd 4b-\	.	.	.	4B-\	-ny	.	4d\	-ny	4ff\	-ny
8D\J	.	.	.	.	.	.	.	.	.	.	.
=13	=13	=13	=13	=13	=13	=13	=13	=13	=13	=13	=13
!LO:TX:t=P:problem=mixed beam	!	!	!	!	!	!	!	!	!	!	!
8E-\L	16cc\LL	.	0.r	0.r	8E-\	na-	.	8G/	na-	16cc\LL	na-
.	16dd\JJ	.	.	.	.	.	.	.	.	16dd\JJ	.
8E-\	16ee-\	.	.	.	16E-\	-sze	.	16G/	-sze	16ee-\	-sze
.	32dd\LLL	.	.	.	16E-\	skła-	.	16G/	skła-	32dd\LLL	skła-
.	32cc\JJJ	.	.	.	.	.	.	.	.	32cc\JJJ	.
8F\	4b- 4d/	.	.	.	4F\	-da-	.	4D/	-da-	(4b-\	-da-
8F\	.	.	.	.	.	.	.	.	.	.	.
8FF/	4a 4c/	.	.	.	4FF/	.	.	4E-/	.	4a\)	.
8FF/J	.	.	.	.	.	.	.	.	.	.	.
=14	=14	=14	=14	=14	=14	=14	=14	=14	=14	=14	=14
4BB-/	4b-\	.	.	.	4BB-/	-my	.	4D/	-my	4b-\	-my
4r	4r	.	.	.	4r	.	.	4r	.	4r	.
16r	16r	.	.	.	8r	.	.	4r	.	4r	.
16F\LL	16f/LL	.	.	.	.	.	.	.	.	.	.
16G\	16g/	.	.	.	24F\LL	przed	.	.	.	.	.
.	.	.	.	.	24G\	.	.	.	.	.	.
16A\JJ	16a/JJ	.	.	.	.	.	.	.	.	.	.
.	.	.	.	.	24A\JJ	.	.	.	.	.	.
!LO:LB:g=original	!LO:LB:g=original	!	!	!	!	!	!	!	!	!	!
=15	=15	=15	=15	=15	=15	=15	=15	=15	=15	=15	=15
4.B-\	4.b-/	.	.	.	4.B-\	o-	.	2.r	.	2.r	.
8F\L	8f/L	.	.	.	8F\	-czy	.	.	.	.	.
8D\	8d/	.	.	.	8D/	two-	.	.	.	.	.
8BB-\J	8B-/J	.	.	.	8BB-/	-ie	.	.	.	.	.
!	!	!	!	!	!LO:LB:g=original	!	!	!	!	!	!
=16	=16	=16	=16	=16	=16	=16	=16	=16	=16	=16	=16
!LO:TX:t=P:problem=mixed beam	!	!	!	!	!	!	!	!	!	!	!
8EE-/L	2gg 2ee-\	.	.	.	2A\	wi-	.	2e-\	wi-	2gg\	wi-
8E-\	.	.	.	.	.	.	.	.	.	.	.
8E-\	.	.	.	.	.	.	.	.	.	.	.
8E-\	.	.	.	.	.	.	.	.	.	.	.
8D\	4ff 4dd\	.	.	.	4B-\	-ny	.	4d\	-ny	4ff\	-ny
8D\J	.	.	.	.	.	.	.	.	.	.	.
!	!	!	!	!	!	!	!	!	!	!LO:LB:g=original	!
=17	=17	=17	=17	=17	=17	=17	=17	=17	=17	=17	=17
8E-\L	16cc\LL	.	0.r	0.r	8E-\	na-	.	8G/	na-	16cc\LL	na-
.	16dd\JJ	.	.	.	.	.	.	.	.	16dd\JJ	.
8E-\J	16ee-\	.	.	.	16E-\	-sze	.	16G/	-sze	16ee-\	-sze
.	32dd\LLL	.	.	.	16E-\	skła-	.	16G/	skła-	32dd\LLL	skła-
.	32cc\JJJ	.	.	.	.	.	.	.	.	32cc\JJJ	.
!LO:TX:t=P:problem=mixed beam	!	!	!	!	!	!	!	!	!	!	!
8F\L	4b- 4d/	.	.	.	4F\	-da-	.	4D/	-da-	4b-\	-da-
8F\	.	.	.	.	.	.	.	.	.	.	.
8FF/	4a 4c/	.	.	.	4FF/	.	.	4E-/	.	4a\	.
8FF/J	.	.	.	.	.	.	.	.	.	.	.
=18	=18	=18	=18	=18	=18	=18	=18	=18	=18	=18	=18
4BB-/	4b- 4d/	.	.	.	4BB-/	-my	.	4D/	-my	4b-\	-my
4B-\	4r	.	.	.	4r	.	.	4r	.	4r	.
4r	4r	.	.	.	4r	.	.	4r	.	4r	.
=19	=19	=19	=19	=19	=19	=19	=19	=19	=19	=19	=19
!LO:TX:t=P:problem=mixed beam	!	!	!	!	!	!	!	!	!	!	!
8FF/L	2cc 2a\	.	.	.	2F\	a	.	2A\	a	2cc\	A
8F\	.	.	.	.	.	.	.	.	.	.	.
*tremolo	*	*	*	*	*	*	*	*	*	*	*
8F\	.	.	.	.	.	.	.	.	.	.	.
8F\	.	.	.	.	.	.	.	.	.	.	.
8F\	4dd 4b-\	.	.	.	4F\	ka-	.	4B-\	ka-	4dd\	ka-
8F\J	.	.	.	.	.	.	.	.	.	.	.
*Xtremolo	*	*	*	*	*	*	*	*	*	*	*
=20	=20	=20	=20	=20	=20	=20	=20	=20	=20	=20	=20
!LO:TX:t=P:problem=mixed beam	!	!	!	!	!	!	!	!	!	!	!
8FF/L	4ee- 4cc\	.	.	.	4F\	-ra-	.	4B-\	-ra-	4ee-\	-ra-
8F\	.	.	.	.	.	.	.	.	.	.	.
*tremolo	*	*	*	*	*	*	*	*	*	*	*
8F\	4cc 4a\	.	.	.	4F\	-nie	.	4A\	-nie	4cc\	-nie
8F\	.	.	.	.	.	.	.	.	.	.	.
8F\	4r	.	.	.	4r	.	.	4r	.	4r	.
8F\J	.	.	.	.	.	.	.	.	.	.	.
*Xtremolo	*	*	*	*	*	*	*	*	*	*	*
!	!	!	!	!	!	!	!	!LO:LB:g=original	!	!	!
=21	=21	=21	=21	=21	=21	=21	=21	=21	=21	=21	=21
!LO:TX:t=P:problem=mixed beam	!	!	!	!	!	!	!	!	!	!	!
8FF/L	8ccL 8a\	.	0.r	0.r	8F\	kto-	.	8A\	kto-	8cc\	kto-
8F\	8cc 8a\	.	.	.	8F\	-re	.	8A\	-re	8cc\	-re
*tremolo	*	*	*	*	*	*	*	*	*	*	*
8F\	8cc 8a\	.	.	.	8F\	za	.	8A\	za	8cc\	za
8F\	8ccJ 8a\	.	.	.	8F\	nie	.	8A\	nie	8cc\	nie
8F\	8ccL 8a\	.	.	.	8F\	od-	.	8A\	od-	8cc\	od-
8F\J	8ddJ 8b-\	.	.	.	8F\	-bie-	.	8B-\	-bie-	8dd\	-bie-
*Xtremolo	*	*	*	*	*	*	*	*	*	*	*
!	!	!	!	!	!	!	!	!	!	!LO:LB:g=original	!
=22	=22	=22	=22	=22	=22	=22	=22	=22	=22	=22	=22
!LO:TX:t=P:problem=mixed beam	!	!	!	!	!	!	!	!	!	!	!
8FF/L	4ee- 4cc\	.	.	.	4F\	-ra-	.	4c\	-ra-	4ee-\	-ra-
8F\J	.	.	.	.	.	.	.	.	.	.	.
*tremolo	*	*	*	*	*	*	*	*	*	*	*
8F\L	8ccL 8a\	.	.	.	4F\	-my	.	4A\	-my	4cc\	-my
8F\	16cccL 16aa\	.	.	.	.	.	.	.	.	.	.
.	16bb-JJ 16gg\	.	.	.	.	.	.	.	.	.	.
8F\	16aaLL 16ff\	.	.	.	4r	.	.	4r	.	4r	.
.	16gg 16ee-\	.	.	.	.	.	.	.	.	.	.
8F\J	16ff 16dd\	.	.	.	.	.	.	.	.	.	.
.	16ee-JJ 16cc\	.	.	.	.	.	.	.	.	.	.
*Xtremolo	*	*	*	*	*	*	*	*	*	*	*
!LO:LB:g=original	!LO:LB:g=original	!	!	!	!	!	!	!	!	!	!
=23	=23	=23	=23	=23	=23	=23	=23	=23	=23	=23	=23
*	*	*	*	*	*	*ij	*	*	*	*	*
!LO:TX:t=P:problem=mixed beam	!	!	!	!	!	!	!	!	!	!	!
8FF/L	8ddL 8b-\	.	.	.	8F\	kto-	.	8B-\	kto-	8dd\	kto-
8F\J	8dd 8b-\	.	.	.	8F\	-re	.	8B-\	-re	8dd\	-re
*tremolo	*	*	*	*	*	*	*	*	*	*	*
8F\L	8dd 8b-\	.	.	.	8F\	za	.	8B-\	za	8dd\	za
8F\	8ddJ 8b-\	.	.	.	8F\	nie	.	8B-\	nie	8dd\	nie
8F\	8ddL 8b-\	.	.	.	8F\	od-	.	8B-\	od-	8dd\	od-
8F\J	8ee-J 8cc\	.	.	.	8F\	-bie-	.	8c\	-bie-	8ee-\	-bie-
*Xtremolo	*	*	*	*	*	*	*	*	*	*	*
!	!	!	!	!	!LO:LB:g=original	!	!	!	!	!	!
=24	=24	=24	=24	=24	=24	=24	=24	=24	=24	=24	=24
!LO:TX:t=P:problem=mixed beam	!	!	!	!	!	!	!	!	!	!	!
8FF/L	4ff 4dd\	.	.	.	4F\	-ra-	.	4d\	-ra-	4ff\	-ra-
8F\J	.	.	.	.	.	.	.	.	.	.	.
*tremolo	*	*	*	*	*	*	*	*	*	*	*
8F\L	8ddL 8b-\	.	.	.	4F\	-my	.	4B-\	-my	4dd\	-my
8F\	16dddL 16bb-\	.	.	.	.	.	.	.	.	.	.
.	16cccJJ 16aa\	.	.	.	.	.	.	.	.	.	.
8F\	16bb-LL 16gg\	.	.	.	4r	.	.	4r	.	4r	.
.	16aa 16ff\	.	.	.	.	.	.	.	.	.	.
8F\J	16gg 16ee-\	.	.	.	.	.	.	.	.	.	.
.	16ffJJ 16dd\	.	.	.	.	.	.	.	.	.	.
*Xtremolo	*	*	*	*	*	*	*	*	*	*	*
=25	=25	=25	=25	=25	=25	=25	=25	=25	=25	=25	=25
*	*	*	*	*	*	*	*	*	*ij	*	*
!LO:TX:t=P:problem=mixed beam	!	!	!	!	!	!	!	!	!	!	!
8FF/L	8ee-L 8cc\	.	0.r	0.r	8F\	kto-	.	8c\	kto-	8ee-\	kto-
8F\J	8ee- 8cc\	.	.	.	8F\	-re	.	8c\	-re	8ee-\	-re
*tremolo	*	*	*	*	*	*	*	*	*	*	*
8F\L	8ee- 8cc\	.	.	.	8F\	za	.	8c\	za	8ee-\	za
8F\	8ee-J 8cc\	.	.	.	8F\	nie	.	8c\	nie	8ee-\	nie
8F\	8ee-L 8cc\	.	.	.	8F\	od-	.	8c\	od-	8ee-\	od-
8F\J	8ffJ 8dd\	.	.	.	8B-\	-bie-	.	8d\	-bie-	8ff\	-bie-
*Xtremolo	*	*	*	*	*	*	*	*	*	*	*
!	!	!	!	!	!	!	!	!	!	!LO:LB:g=original	!
=26	=26	=26	=26	=26	=26	=26	=26	=26	=26	=26	=26
4F\	2gg 2ee-\	.	.	.	2c\	-ra-	.	2e-\	-ra-	2gg\	-ra-
4A\	.	.	.	.	.	.	.	.	.	.	.
4F\	4ee- 4cc\	.	.	.	4A\	-my	.	4c\	-my	4ee-\	-my
*	*	*	*	*	*	*Xij	*	*	*Xij	*	*
=27	=27	=27	=27	=27	=27	=27	=27	=27	=27	=27	=27
*	*tuplet	*	*	*	*	*	*	*	*	*Xtuplet	*
!	!LO:TUP:a:problem=klamra łukowa	!	!	!	!	!	!	!	!	!	!
8B-\L	24dd\LL	.	.	.	8B-\	przy-	.	8B-\	przy-	24dd\LL	przy-
.	24cc\	.	.	.	.	.	.	.	.	24cc\	.
.	24dd\JJ	.	.	.	.	.	.	.	.	24dd\JJ	.
!	!LO:TUP:a:problem=klamra łukowa	!	!	!	!	!	!	!	!	!	!
8E-\J	24ee-\LL	.	.	.	16C/	-row-	.	16G/	-row-	24ee-\LL	-row-
.	24dd\	.	.	.	.	.	.	.	.	24dd\	.
.	.	.	.	.	16E-/	ny-	.	16G/	ny-	.	.
.	24cc\JJ	.	.	.	.	.	.	.	.	24cc\JJ	-ny-
4F\	4b- 4d/	.	.	.	4D\	-wa-	.	(>4D/	-wa-	(4b-\	-wa-
4FF/	4a 4c/	.	.	.	4FF/	.	.	4C/)	.	4a\)	.
=28	=28	=28	=28	=28	=28	=28	=28	=28	=28	=28	=28
4BB-/	8b-L 8d/	.	.	.	4BB-/	-my	.	4D/	-my	4b-\	-my
.	16bb-L 16dd/	.	.	.	.	.	.	.	.	.	.
.	16ggJJ 16ee-/	.	.	.	.	.	.	.	.	.	.
4B-\	8ffL 8dd/	.	.	.	4r	.	.	4r	.	4r	.
.	8dd 8b-/	.	.	.	.	.	.	.	.	.	.
4r	8ff 8dd/	.	.	.	4r	.	.	4r	.	4r	.
.	8ddJ 8b-/	.	.	.	.	.	.	.	.	.	.
!LO:LB:g=original	!LO:LB:g=original	!	!	!	!	!	!	!LO:LB:g=original	!	!	!
=29	=29	=29	=29	=29	=29	=29	=29	=29	=29	=29	=29
!LO:TX:t=P:problem=mixed beam	!	!	!	!	!	!	!	!LO:TX:t=P:problem=takty nr 29-38 zapisane repetycją	!	!LO:TX:t=P:problem=takty nr 29-38 zapisane repetycją	!
8FF/L	2cc 2a\	.	0.r	0.r	2F\	a	.	2A\yy	a	2cc\yy	a
8F\	.	.	.	.	.	.	.	.	.	.	.
*tremolo	*	*	*	*	*	*	*	*	*	*	*
8F\	.	.	.	.	.	.	.	.	.	.	.
8F\	.	.	.	.	.	.	.	.	.	.	.
8F\	4dd 4b-\	.	.	.	4F\	ka-	.	4B-\yy	ka-	4dd\yy	ka-
8F\J	.	.	.	.	.	.	.	.	.	.	.
*Xtremolo	*	*	*	*	*	*	*	*	*	*	*
=30	=30	=30	=30	=30	=30	=30	=30	=30	=30	=30	=30
!LO:TX:t=P:problem=mixed beam	!	!	!	!	!	!	!	!	!	!	!
8FF/L	4ee- 4cc\	.	.	.	4F\	-ra-	.	4B-\yy	-ra-	4ee-\yy	-ra-
8F\	.	.	.	.	.	.	.	.	.	.	.
*tremolo	*	*	*	*	*	*	*	*	*	*	*
8F\	4cc 4a\	.	.	.	4F\	-nie	.	4A\yy	-nie	4cc\yy	-nie
8F\	.	.	.	.	.	.	.	.	.	.	.
8F\	4r	.	.	.	4r	.	.	4ryy	.	4ryy	.
8F\J	.	.	.	.	.	.	.	.	.	.	.
*Xtremolo	*	*	*	*	*	*	*	*	*	*	*
!	!	!	!	!	!	!	!	!LO:LB:g=original	!	!	!
=31	=31	=31	=31	=31	=31	=31	=31	=31	=31	=31	=31
!LO:TX:t=P:problem=mixed beam	!	!	!	!	!	!	!	!	!	!	!
8FF/L	8ccL 8a\	.	.	.	8F\	kto-	.	8A\yy	kto-	8cc\yy	kto-
8F\J	8cc 8a\	.	.	.	8F\	-re	.	8A\yy	-re	8cc\yy	-re
*tremolo	*	*	*	*	*	*	*	*	*	*	*
8F\L	8cc 8a\	.	.	.	8F\	za	.	8A\yy	za	8cc\yy	za
8F\	8ccJ 8a\	.	.	.	8F\	nie	.	8A\yy	nie	8cc\yy	nie
8F\	8ccL 8a\	.	.	.	8F\	od-	.	8A\yy	od-	8cc\yy	od-
8F\J	8ddJ 8b-\	.	.	.	8F\	-bie-	.	8B-\yy	-bie-	8dd\yy	-bie-
*Xtremolo	*	*	*	*	*	*	*	*	*	*	*
!	!	!	!	!	!LO:LB:g=original	!	!	!	!	!LO:LB:g=original	!
=32	=32	=32	=32	=32	=32	=32	=32	=32	=32	=32	=32
!LO:TX:t=P:problem=mixed beam	!	!	!	!	!	!	!	!	!	!	!
8FF/L	4ee- 4cc\	.	.	.	4F\	-ra-	.	4c\yy	-ra-	4ee-\yy	-ra-
8F\J	.	.	.	.	.	.	.	.	.	.	.
*tremolo	*	*	*	*	*	*	*	*	*	*	*
8F\L	8ccL 8a\	.	.	.	4F\	-my	.	4A\yy	-my	4cc\yy	-my
8F\	16cccL 16aa\	.	.	.	.	.	.	.	.	.	.
.	16bb-JJ 16gg\	.	.	.	.	.	.	.	.	.	.
8F\	16aaLL 16ff\	.	.	.	4r	.	.	4ryy	.	4ryy	.
.	16gg 16ee-\	.	.	.	.	.	.	.	.	.	.
8F\J	16ff 16dd\	.	.	.	.	.	.	.	.	.	.
.	16ee-JJ 16cc\	.	.	.	.	.	.	.	.	.	.
*Xtremolo	*	*	*	*	*	*	*	*	*	*	*
=33	=33	=33	=33	=33	=33	=33	=33	=33	=33	=33	=33
*	*	*	*	*	*	*ij	*	*	*	*	*
!LO:TX:t=P:problem=mixed beam	!	!	!	!	!	!	!	!	!	!	!
8FF/L	8ddL 8b-\	.	0.r	0.r	8F\	kto-	.	8B-\yy	kto-	8dd\yy	kto-
8F\J	8dd 8b-\	.	.	.	8F\	-re	.	8B-\yy	-re	8dd\yy	-re
*tremolo	*	*	*	*	*	*	*	*	*	*	*
8F\L	8dd 8b-\	.	.	.	8F\	za	.	8B-\yy	za	8dd\yy	za
8F\	8ddJ 8b-\	.	.	.	8F\	nie	.	8B-\yy	nie	8dd\yy	nie
8F\	8ddL 8b-\	.	.	.	8F\	od-	.	8B-\yy	od-	8dd\yy	od-
8F\J	8ee-J 8cc\	.	.	.	8F\	-bie-	.	8c\yy	-bie-	8ee-\yy	-bie-
*Xtremolo	*	*	*	*	*	*	*	*	*	*	*
=34	=34	=34	=34	=34	=34	=34	=34	=34	=34	=34	=34
!LO:TX:t=P:problem=mixed beam	!	!	!	!	!	!	!	!	!	!	!
8FF/L	4ff 4dd\	.	.	.	4F\	-ra-	.	4d\yy	-ra-	4ff\yy	-ra-
8F\J	.	.	.	.	.	.	.	.	.	.	.
*tremolo	*	*	*	*	*	*	*	*	*	*	*
8F\L	8ddL 8b-\	.	.	.	4F\	-my	.	4B-\yy	-my	4dd\yy	-my
8F\	16dddL 16bb-\	.	.	.	.	.	.	.	.	.	.
.	16cccJJ 16aa\	.	.	.	.	.	.	.	.	.	.
8F\	16bb-LL 16gg\	.	.	.	4r	.	.	4ryy	.	4ryy	.
.	16aa 16ff\	.	.	.	.	.	.	.	.	.	.
8F\J	16gg 16ee-\	.	.	.	.	.	.	.	.	.	.
.	16ffJJ 16dd\	.	.	.	.	.	.	.	.	.	.
*Xtremolo	*	*	*	*	*	*	*	*	*	*	*
!LO:LB:g=original	!LO:LB:g=original	!	!	!	!	!	!	!	!	!	!
=35	=35	=35	=35	=35	=35	=35	=35	=35	=35	=35	=35
*	*	*	*	*	*	*	*	*	*ij	*	*
!LO:TX:t=P:problem=mixed beam	!	!	!	!	!	!	!	!	!	!	!
8FF/L	8ee-L 8cc\	.	.	.	8F\	kto-	.	8c\yy	kto-	8ee-\yy	kto-
8F\J	8ee- 8cc\	.	.	.	8F\	-re	.	8c\yy	-re	8ee-\yy	-re
*tremolo	*	*	*	*	*	*	*	*	*	*	*
8F\L	8ee- 8cc\	.	.	.	8F\	za	.	8c\yy	za	8ee-\yy	za
8F\	8ee-J 8cc\	.	.	.	8F\	nie	.	8c\yy	nie	8ee-\yy	nie
8F\	8ee-L 8cc\	.	.	.	8F\	od-	.	8c\yy	od-	8ee-\yy	od-
8F\J	8ffJ 8dd\	.	.	.	8B-\	-bie-	.	8d\yy	-bie-	8ff\yy	-bie-
*Xtremolo	*	*	*	*	*	*	*	*	*	*	*
!	!	!	!	!	!	!	!	!	!	!LO:LB:g=original	!
=36	=36	=36	=36	=36	=36	=36	=36	=36	=36	=36	=36
4F\	2gg 2ee-\	.	.	.	2c\	-ra-	.	2e-\yy	-ra-	2gg\yy	-ra-
4A\	.	.	.	.	.	.	.	.	.	.	.
4F\	4gg 4ee- 4cc\	.	.	.	4A\	-my	.	4c\yy	-my	4ee-\yy	-my
*	*	*	*	*	*	*Xij	*	*	*Xij	*	*
=37	=37	=37	=37	=37	=37	=37	=37	=37	=37	=37	=37
!	!LO:TUP:a:problem=klamra łukowa	!	!	!	!	!	!	!	!	!	!
8B-\L	24dd\LL	.	0.r	0.r	8B-\	przy-	.	8B-\yy	przy-	24dd\LLyy	przy-
.	24cc\	.	.	.	.	.	.	.	.	24cc\yy	.
.	24dd\JJ	.	.	.	.	.	.	.	.	24dd\JJyy	.
!	!LO:TUP:a:problem=klamra łukowa	!	!	!	!	!	!	!	!	!	!
8E-\J	24ee-\LL	.	.	.	16C/	-row-	.	16G/yy	-row-	24ee-\LLyy	-row-
.	24dd\	.	.	.	.	.	.	.	.	24dd\yy	.
.	.	.	.	.	16E-/	ny-	.	16G/yy	ny-	.	.
.	24cc\JJ	.	.	.	.	.	.	.	.	24cc\JJyy	ny-
4F\	4b- 4d/	.	.	.	2F\	-wa-	.	(y>4D/yy	-wa-	(y4b-\yy	-wa-
4FF/	4a 4c/	.	.	.	.	.	.	4C/)yy	.	4a\)yy	.
=38	=38	=38	=38	=38	=38	=38	=38	=38	=38	=38	=38
4BB-/	4b- 4d/	.	.	.	4B-\	-my	.	4D/yy	-my	4b-\yy	-my
4B-\	8B-/L	.	.	.	8r	.	.	4ryy	.	4ryy	.
.	8b- 8d/	.	.	.	8B-\	a	.	.	.	.	.
4r	8b- 8d/	.	.	.	8B-\	ka-	.	4ryy	.	4ryy	.
.	8b-J 8d/	.	.	.	16B-\	-ra-	.	.	.	.	.
.	.	.	.	.	16B-\	-nie	.	.	.	.	.
!	!	!	!	!	!LO:LB:g=original	!	!	!LO:LB:g=original	!	!	!
=39	=39	=39	=39	=39	=39	=39	=39	=39	=39	=39	=39
4F\	8.aL 8.c/	.	.	.	8.A\	kto-	.	2.r	.	2.r	.
.	16gJk 16e-/	.	.	.	16G\	-re	.	.	.	.	.
4FF/	8.fL 8.d/	.	.	.	8.F\	za	.	.	.	.	.
.	16gJk 16e-/	.	.	.	16G\	nie	.	.	.	.	.
4r	8.fL 8.d/	.	.	.	8.F\	od-	.	.	.	.	.
.	16e-Jk 16c/	.	.	.	16E-\	-bie-	.	.	.	.	.
=40	=40	=40	=40	=40	=40	=40	=40	=40	=40	=40	=40
4BB-/	4e- 4c/	.	.	.	16F\LL	-ra-	.	4r	.	4r	.
.	.	.	.	.	16E-\	.	.	.	.	.	.
.	.	.	.	.	16D\	.	.	.	.	.	.
.	.	.	.	.	16E-\JJ	.	.	.	.	.	.
!	!LO:TX:t=P:problem=mixed beam	!	!	!	!	!	!	!	!	!LO:TX:t=P:problem=mixed beam	!
4B-\	8dL 8B-/	.	.	.	8D\	-my	.	8r	.	8d/L	a
.	8bb- 8dd\	.	.	.	8r	.	.	8d\	ka-	8bb-\J	ka-
4r	8bb- 8dd\	.	.	.	4r	.	.	8d\	-ra-	8bb-\L	-ra-
.	8bb-J 8dd\	.	.	.	.	.	.	8d\	-nie	8bb-\J	-nia
=41	=41	=41	=41	=41	=41	=41	=41	=41	=41	=41	=41
4F\	8.aaL 8.cc\	.	0.r	0.r	2.r	.	.	8.c\	kto-	8.aa\	kto-
.	16ggJk 16ee-\	.	.	.	.	.	.	16e-\	-re	16gg\	-re
!	!	!	!	!	!	!	!	!	!	!LO:LB:g=original	!
4ryy	8.ffL 8.dd\	.	.	.	.	.	.	8d\	za	8.ff\	za
.	.	.	.	.	.	.	.	8e-\	nie	.	.
.	16ggJk 16ee-\	.	.	.	.	.	.	.	.	16gg\	nie
!LO:LB:g=original	!LO:LB:g=original	!	!	!	!	!	!	!	!	!	!
4r	8.ffL 8.dd\	.	.	.	.	.	.	8.d\	od-	8.ff\	od-
.	16ee-Jk 16cc\	.	.	.	.	.	.	16c\	-bie-	16ee-\	-bie-
=42	=42	=42	=42	=42	=42	=42	=42	=42	=42	=42	=42
4BB-/	4ee- 4cc\	.	.	.	4r	.	.	4c\	-ra-	4ee-\	-ra-
4B-\	8ddL 8b-\	.	.	.	8r	.	.	8B-\	-my	8dd\L	-my
.	8ff 8dd\	.	.	.	8B-\	ka-	.	8d\	ka-	8ff\	ka-
4r	8ff 8dd\	.	.	.	8B-\	-ra-	.	8d\	-ra-	8ff\	-ra-
.	8ffJ 8dd\	.	.	.	8B-\	-nie	.	8d\	-nia	8ff\J	-nia
=43	=43	=43	=43	=43	=43	=43	=43	=43	=43	=43	=43
8E-L 8EE-\	8ggL 8ee- 8b-\	.	.	.	8B-\	kto-	.	8e-\	kto-	8gg\	kto-
8D 8DD\	8ff 8dd 8b-\	.	.	.	8B-\	-re	.	8d\	-re	8ff\	-re
8E- 8EE-\	8gg 8ee- 8b-\	.	.	.	8B-\	za	.	8e-\	za	8gg\	za
8DJ 8DD\	8ffJ 8dd 8b-\	.	.	.	8B-\	nie	.	8d\	nie	8ff\	nie
8E-L 8EE-\	8ggL 8ee- 8b-\	.	.	.	8B-\	od-	.	8e-\	od-	8gg\	od-
8E-J 8EE-\	8ee-J 8cc\	.	.	.	8G\	-bie-	.	8c\	-bie-	8ee-\	-bie-
=44	=44	=44	=44	=44	=44	=44	=44	=44	=44	=44	=44
8F\L	4.cc 4.a\	.	.	.	(4.F\	-ra-	.	(4.A\	-ra-	(4.cc\	-ra-
8F\	.	.	.	.	.	.	.	.	.	.	.
8F#X\	.	.	.	.	.	.	.	.	.	.	.
8F#\	8ee- 8cc\	.	.	.	8F#X\)	.	.	8c\)	.	8ee-\)	.
8G\	4dd 4b-\	.	.	.	4G\	-my	.	4B-\	-my	4dd\	-my
8G\J	.	.	.	.	.	.	.	.	.	.	.
!	!	!	!	!	!LO:LB:g=original	!	!	!	!	!LO:LB:g=original	!
=45	=45	=45	=45	=45	=45	=45	=45	=45	=45	=45	=45
!LO:TX:t=P:problem=mixed beam	!	!	!	!	!	!	!	!	!	!	!
8E-\L	8cc\L	.	0.r	0.r	8E-/	przy-	.	8G/	przy-	8cc\	przy-
8E-\	16dd\L	.	.	.	16BBn/	-row-	.	16F/	-row-	16dd\	-row-
.	16ee-\JJ	.	.	.	16C/	-ny-	.	16G/	-ny-	16ee-\	-ny-
8F\	4b- 4d/	.	.	.	2F\	-wa-	.	(>4D/	-wa-	(4b-\	-wa-
8F\	.	.	.	.	.	.	.	.	.	.	.
8FF/	4a 4c/	.	.	.	.	.	.	4C/)	.	4a\)	.
8FF/J	.	.	.	.	.	.	.	.	.	.	.
!	!	!	!	!	!	!	!	!LO:LB:g=original	!	!	!
=46	=46	=46	=46	=46	=46	=46	=46	=46	=46	=46	=46
!LO:TX:t=P:problem=takty nr 46-53 zapisane repetycją	!LO:TX:t=P:problem=takty nr 46-53 zapisane repetycją	!	!	!	!	!	!	!	!	!	!
4BB-/yy	4b-yy 4d/yy	.	.	.	4B-\	-my	.	4D/	-my	4b-\	-my
4B-\yy	8B-/Lyy	.	.	.	8BB-/	a	.	4r	.	4r	.
.	8b-yy 8d/yy	.	.	.	8B-\	ka-	.	.	.	.	.
4ryy	8b-yy 8d/yy	.	.	.	8B-\	-ra-	.	4r	.	4r	.
.	8b-yyJ 8d/yy	.	.	.	8B-\	-nie	.	.	.	.	.
=47	=47	=47	=47	=47	=47	=47	=47	=47	=47	=47	=47
4F\yy	8.ayyL 8.c/yy	.	.	.	8.A\	kto-	.	2.r	.	2.r	.
.	16gyyJk 16e-/yy	.	.	.	16G\	-re	.	.	.	.	.
4FF/yy	8.fyyL 8.d/yy	.	.	.	8.F\	za	.	.	.	.	.
.	16gyyJk 16e-/yy	.	.	.	16G\	nie	.	.	.	.	.
4ryy	8.fyyL 8.d/yy	.	.	.	8.F\	od-	.	.	.	.	.
.	16e-yyJk 16c/yy	.	.	.	16E-\	-bie-	.	.	.	.	.
=48	=48	=48	=48	=48	=48	=48	=48	=48	=48	=48	=48
4BB-/yy	4e-yy 4c/yy	.	.	.	16F\LL	-ra-	.	4r	.	4r	.
.	.	.	.	.	16E-\	.	.	.	.	.	.
.	.	.	.	.	16D\	.	.	.	.	.	.
.	.	.	.	.	16E-\JJ	.	.	.	.	.	.
!	!LO:TX:t=P:problem=mixed beam	!	!	!	!	!	!	!	!	!LO:TX:t=P:problem=mixed beam	!
4B-\yy	8dyyL 8B-/yy	.	.	.	8D\	-my	.	8r	.	8d/L	a
.	8bb-yy 8dd\yy	.	.	.	8r	.	.	8d\	ka-	8bb-\	ka-
4ryy	8bb-yy 8dd\yy	.	.	.	4r	.	.	8d\	-ra-	8bb-\	-ra-
.	8bb-yyJ 8dd\yy	.	.	.	.	.	.	8d\	-nie	8bb-\J	-nie
=49	=49	=49	=49	=49	=49	=49	=49	=49	=49	=49	=49
4F\yy	8.aayyL 8.cc\yy	.	0.r	0.r	2.r	.	.	8.c\	kto-	8.aa\	kto-
.	16ggyyJk 16ee-\yy	.	.	.	.	.	.	16e-\	-re	16gg\	-re
4ryy	8.ffyyL 8.dd\yy	.	.	.	.	.	.	8d\	za	8.ff\	za
.	.	.	.	.	.	.	.	8e-\	nie	.	.
.	16ggyyJk 16ee-\yy	.	.	.	.	.	.	.	.	16gg\	nie
!LO:LB:g=original	!LO:LB:g=original	!	!	!	!	!	!	!	!	!	!
4ryy	8.ffyyL 8.dd\yy	.	.	.	.	.	.	8.d\	od-	8.ff\	od-
.	16ee-yyJk 16cc\yy	.	.	.	.	.	.	16c\	-bie-	16ee-\	-bie-
!	!	!	!	!	!	!	!	!	!	!LO:LB:g=original	!
=50	=50	=50	=50	=50	=50	=50	=50	=50	=50	=50	=50
4BB-/yy	4ee-yy 4cc\yy	.	.	.	4r	.	.	4c\	-ra-	4ee-\	-ra-
4B-\yy	8ddyyL 8b-\yy	.	.	.	8r	.	.	8B-\	-my	8dd\L	-my
.	8ffyy 8dd\yy	.	.	.	8B-\	ka-	.	8d\	ka-	8ff\	ka-
4ryy	8ffyy 8dd\yy	.	.	.	8B-\	-ra-	.	8d\	-ra-	8ff\	-ra-
.	8ffyyJ 8dd\yy	.	.	.	8B-\	-nie	.	8d\	-nia	8ff\J	-nie
!	!	!	!	!	!LO:LB:g=original	!	!	!	!	!	!
=51	=51	=51	=51	=51	=51	=51	=51	=51	=51	=51	=51
8E-yyL 8EE-\yy	8ggyyL 8ee-yy 8b-\yy	.	.	.	8B-\	kto-	.	8e-\	kto-	8gg\	kto-
8Dyy 8DD\yy	8ffyy 8ddyy 8b-\yy	.	.	.	8B-\	-re	.	8d\	-re	8ff\	-re
8E-yy 8EE-\yy	8ggyy 8ee-yy 8b-\yy	.	.	.	8B-\	za	.	8e-\	za	8gg\	za
8DyyJ 8DD\yy	8ffyyJ 8ddyy 8b-\yy	.	.	.	8B-\	nie	.	8d\	nie	8ff\	nie
8E-yyL 8EE-\yy	8ggyyL 8ee-yy 8b-\yy	.	.	.	8B-\	od-	.	8e-\	od-	8gg\	od-
8E-yyJ 8EE-\yy	8ee-yyJ 8cc\yy	.	.	.	8G\	-bie-	.	8c\	-bie-	8ee-\	-bie-
=52	=52	=52	=52	=52	=52	=52	=52	=52	=52	=52	=52
8F\Lyy	4.ccyy 4.a\yy	.	.	.	(4.F\	-ra-	.	(4.A\	-ra-	(4.cc\	-ra-
8F\yy	.	.	.	.	.	.	.	.	.	.	.
8F#X\yy	.	.	.	.	.	.	.	.	.	.	.
8F#\yy	8ee-yy 8cc\yy	.	.	.	8F#X\)	.	.	8c\)	.	8ee-\)	.
8G\yy	4ddyy 4b-\yy	.	.	.	4G\	-my	.	4B-\	-my	4dd\	-my
8G\Jyy	.	.	.	.	.	.	.	.	.	.	.
!	!	!	!	!	!	!	!	!LO:LB:g=original	!	!	!
=53	=53	=53	=53	=53	=53	=53	=53	=53	=53	=53	=53
!LO:TX:t=P:problem=mixed beam	!	!	!	!	!	!	!	!	!	!	!
8E-\Lyy	8cc\Lyy	.	2.r	2.r	8E-/	przy-	.	8G/	przy-	8cc\	przy-
8E-\yy	16dd\Lyy	.	.	.	16BBn/	-row-	.	16F/	-row-	16dd\	-row-
.	16ee-\JJyy	.	.	.	16C/	-ny-	.	16G/	-ny-	16ee-\	-ny-
8F\yy	4b-yy 4d/yy	.	.	.	2F\	-wa-	.	(>4D/	-wa-	(4b-\	-wa-
8F\yy	.	.	.	.	.	.	.	.	.	.	.
8FF/yy	4ayy 4c/yy	.	.	.	.	.	.	4C/)	.	4a\)	.
8FF/Jyy	.	.	.	.	.	.	.	.	.	.	.
!	!	!	!	!	!	!	!	!	!	!LO:LB:g=original	!
=54	=54	=54	=54	=54	=54	=54	=54	=54	=54	=54	=54
4BB-/	4b- 4d/	.	8d/L	4.b-\	4BB-/	-my	.	4D/	-my	4b-\	-my
.	.	.	8f/	.	.	.	.	.	.	.	.
4B-\	8r	.	8d/	.	4r	.	.	4r	.	4r	.
.	8b-L 8f 8d/	.	8f/	8b-\L	.	.	.	.	.	.	.
4r	8b- 8f 8d/	.	8d/	8dd\	4r	.	.	4r	.	4r	.
.	8b-J 8f 8d/	.	8f/J	8ff\J	.	.	.	.	.	.	.
=55	=55	=55	=55	=55	=55	=55	=55	=55	=55	=55	=55
!	!	!	!	!LO:TX:t=P:problem=mixed beam	!	!	!	!	!	!	!
4F 4FF\	8r	.	8e-/L	8ff\L	0.r	.	.	0.r	.	0.r	.
.	8aL 8e- 8c/	.	8f/	8a/J	.	.	.	.	.	.	.
*	*tremolo	*	*	*	*	*	*	*	*	*	*
4r	8a 8e- 8c/	.	8e-/	4.a/	.	.	.	.	.	.	.
.	8a 8e- 8c/	.	8f/	.	.	.	.	.	.	.	.
4r	8a 8e- 8c/	.	8e-/	.	.	.	.	.	.	.	.
.	8aJ 8e- 8c/	.	8f/J	8cc/	.	.	.	.	.	.	.
*	*Xtremolo	*	*	*	*	*	*	*	*	*	*
=56	=56	=56	=56	=56	=56	=56	=56	=56	=56	=56	=56
4B- 4BB-\	8r	.	8d/L	4.b-\	.	.	.	.	.	.	.
.	8b-L 8f 8d/	.	8f/	.	.	.	.	.	.	.	.
*	*tremolo	*	*	*	*	*	*	*	*	*	*
4r	8b- 8f 8d/	.	8d/	.	.	.	.	.	.	.	.
.	8b- 8f 8d/	.	8f/	8b-\L	.	.	.	.	.	.	.
4r	8b- 8f 8d/	.	8d/	8dd\	.	.	.	.	.	.	.
.	8b-J 8f 8d/	.	8f/J	8ff\J	.	.	.	.	.	.	.
*	*Xtremolo	*	*	*	*	*	*	*	*	*	*
!LO:LB:g=original	!LO:LB:g=original	!	!	!	!	!	!	!	!	!	!
=57	=57	=57	=57	=57	=57	=57	=57	=57	=57	=57	=57
!	!	!	!	!LO:TX:t=P:problem=mixed beam	!	!	!	!	!	!	!
4F 4FF\	8r	.	8e-/L	8ff\L	.	.	.	.	.	.	.
.	8aL 8e- 8c/	.	8f/	8a/J	.	.	.	.	.	.	.
*	*tremolo	*	*	*	*	*	*	*	*	*	*
4r	8a 8e- 8c/	.	8e-/	4.a/	.	.	.	.	.	.	.
.	8a 8e- 8c/	.	8f/	.	.	.	.	.	.	.	.
4r	8a 8e- 8c/	.	8e-/	.	.	.	.	.	.	.	.
.	8aJ 8e- 8c/	.	8f/J	8cc/	.	.	.	.	.	.	.
*	*Xtremolo	*	*	*	*	*	*	*	*	*	*
=58	=58	=58	=58	=58	=58	=58	=58	=58	=58	=58	=58
8BB-/	8b- 8f 8d/	.	4f/	4b- 4d/	.	.	.	.	.	.	.
*clefG2	*Xtuplet	*	*	*	*	*	*	*	*	*	*
8bb-\L	24ddd\LL	.	.	.	.	.	.	.	.	.	.
.	24eee-\	.	.	.	.	.	.	.	.	.	.
.	24ddd\JJ	.	.	.	.	.	.	.	.	.	.
8aa\	24ccc\LL	.	4r	4r	.	.	.	.	.	.	.
.	24ddd\	.	.	.	.	.	.	.	.	.	.
.	24ccc\JJ	.	.	.	.	.	.	.	.	.	.
8gg\	24bb-\LL	.	.	.	.	.	.	.	.	.	.
.	24ccc\	.	.	.	.	.	.	.	.	.	.
.	24bb-\JJ	.	.	.	.	.	.	.	.	.	.
8ff\	24aa\LL	.	4r	4r	.	.	.	.	.	.	.
.	24bb-\	.	.	.	.	.	.	.	.	.	.
.	24aa\JJ	.	.	.	.	.	.	.	.	.	.
8ee-\J	24gg\LL	.	.	.	.	.	.	.	.	.	.
.	24aa\	.	.	.	.	.	.	.	.	.	.
.	24gg\JJ	.	.	.	.	.	.	.	.	.	.
=59	=59	=59	=59	=59	=59	=59	=59	=59	=59	=59	=59
8dd\L	8ff\	.	1.r	1.r	0.r	.	.	0.r	.	0.r	.
8gg\	24bb-\LL	.	.	.	.	.	.	.	.	.	.
.	24ccc\	.	.	.	.	.	.	.	.	.	.
.	24bb-\JJ	.	.	.	.	.	.	.	.	.	.
8ff\	24aa\LL	.	.	.	.	.	.	.	.	.	.
.	24bb-\	.	.	.	.	.	.	.	.	.	.
.	24aa\JJ	.	.	.	.	.	.	.	.	.	.
8ee-\	24gg\LL	.	.	.	.	.	.	.	.	.	.
.	24aa\	.	.	.	.	.	.	.	.	.	.
.	24gg\JJ	.	.	.	.	.	.	.	.	.	.
8dd\	24ff\LL	.	.	.	.	.	.	.	.	.	.
.	24gg\	.	.	.	.	.	.	.	.	.	.
.	24ff\JJ	.	.	.	.	.	.	.	.	.	.
8cc\J	24ee-\LL	.	.	.	.	.	.	.	.	.	.
.	24ff\	.	.	.	.	.	.	.	.	.	.
.	24ee-\JJ	.	.	.	.	.	.	.	.	.	.
=60	=60	=60	=60	=60	=60	=60	=60	=60	=60	=60	=60
4b-\	4dd\	.	.	.	.	.	.	.	.	.	.
*clefF4	*	*	*	*	*	*	*	*	*	*	*
4B-\	16b-\LL	.	.	.	.	.	.	.	.	.	.
.	16cc\	.	.	.	.	.	.	.	.	.	.
.	16dd\	.	.	.	.	.	.	.	.	.	.
.	16ee-\JJ	.	.	.	.	.	.	.	.	.	.
4r	16ff\LL	.	.	.	.	.	.	.	.	.	.
.	16gg\	.	.	.	.	.	.	.	.	.	.
.	16aa\	.	.	.	.	.	.	.	.	.	.
.	16bb-\JJ	.	.	.	.	.	.	.	.	.	.
=61	=61	=61	=61	=61	=61	=61	=61	=61	=61	=61	=61
*^	*	*	*	*	*	*	*	*	*	*	*
*tremolo	*	*	*	*	*	*	*	*	*	*	*	*
!	!	!LO:TX:t=P:problem=mixed beam	!	!	!	!	!	!	!	!	!	!
8d/L	8F\L	8bb-\L	.	8B-/L	8d/L	.	.	.	.	.	.	.
8d/	8F\	8b-/J	.	8B-/	8d/	.	.	.	.	.	.	.
*	*tremolo	*	*	*tremolo	*tremolo	*	*	*	*	*	*	*
!	!	!LO:TX:t=P:problem=fragment taktu nr 61 niewidoczny [defekt źródła]	!	!	!	!	!	!	!	!	!	!
8e-/	8F\	2ryy	.	8c/	8e-/	.	.	.	.	.	.	.
8e-/	8F\	.	.	8c/	8e-/	.	.	.	.	.	.	.
8e-/	8F\	.	.	8c/	8e-/	.	.	.	.	.	.	.
8e-/J	8F\J	.	.	8c/J	8e-/J	.	.	.	.	.	.	.
*	*Xtremolo	*	*	*Xtremolo	*Xtremolo	*	*	*	*	*	*	*
*v	*v	*	*	*	*	*	*	*	*	*	*	*
!LO:LB:g=original	!LO:LB:g=original	!	!	!	!	!	!	!	!	!	!
=62	=62	=62	=62	=62	=62	=62	=62	=62	=62	=62	=62
!	!LO:TX:t=P:problem=takty nr 62-65 zapisane repetycją [defekt źródła, brak zakończenia repetycji]	!	!	!	!	!	!	!	!	!	!
8BB-/yy	8d/yy 8fyy 8b-yy	.	4B-/	4b- 4d/	.	.	.	.	.	.	.
*yclefG2	*	*	*	*	*	*	*	*	*	*	*
8bb-\Lyy	24ddd\LLyy	.	.	.	.	.	.	.	.	.	.
.	24eee-\yy	.	.	.	.	.	.	.	.	.	.
.	24ddd\JJyy	.	.	.	.	.	.	.	.	.	.
8aa\yy	24ccc\LLyy	.	4r	4r	.	.	.	.	.	.	.
.	24ddd\yy	.	.	.	.	.	.	.	.	.	.
.	24ccc\JJyy	.	.	.	.	.	.	.	.	.	.
8gg\yy	24bb-\LLyy	.	.	.	.	.	.	.	.	.	.
.	24ccc\yy	.	.	.	.	.	.	.	.	.	.
.	24bb-\JJyy	.	.	.	.	.	.	.	.	.	.
8ff\yy	24aa\LLyy	.	4r	4r	.	.	.	.	.	.	.
.	24bb-\yy	.	.	.	.	.	.	.	.	.	.
.	24aa\JJyy	.	.	.	.	.	.	.	.	.	.
8ee-\Jyy	24gg\LLyy	.	.	.	.	.	.	.	.	.	.
.	24aa\yy	.	.	.	.	.	.	.	.	.	.
.	24gg\JJyy	.	.	.	.	.	.	.	.	.	.
=63	=63	=63	=63	=63	=63	=63	=63	=63	=63	=63	=63
8dd\Lyy	8ff\yy	.	1.r	1.r	0.r	.	.	0.r	.	0.r	.
8gg\yy	24bb-\LLyy	.	.	.	.	.	.	.	.	.	.
.	24ccc\yy	.	.	.	.	.	.	.	.	.	.
.	24bb-\JJyy	.	.	.	.	.	.	.	.	.	.
8ff\yy	24aa\LLyy	.	.	.	.	.	.	.	.	.	.
.	24bb-\yy	.	.	.	.	.	.	.	.	.	.
.	24aa\JJyy	.	.	.	.	.	.	.	.	.	.
8ee-\yy	24gg\LLyy	.	.	.	.	.	.	.	.	.	.
.	24aa\yy	.	.	.	.	.	.	.	.	.	.
.	24gg\JJyy	.	.	.	.	.	.	.	.	.	.
8dd\yy	24ff\LLyy	.	.	.	.	.	.	.	.	.	.
.	24gg\yy	.	.	.	.	.	.	.	.	.	.
.	24ff\JJyy	.	.	.	.	.	.	.	.	.	.
8cc\Jyy	24ee-\LLyy	.	.	.	.	.	.	.	.	.	.
.	24ff\yy	.	.	.	.	.	.	.	.	.	.
.	24ee-\JJyy	.	.	.	.	.	.	.	.	.	.
=64	=64	=64	=64	=64	=64	=64	=64	=64	=64	=64	=64
4b-\yy	4dd\yy	.	.	.	.	.	.	.	.	.	.
*clefF4	*	*	*	*	*	*	*	*	*	*	*
4B-\yy	16b-\LLyy	.	.	.	.	.	.	.	.	.	.
.	16cc\yy	.	.	.	.	.	.	.	.	.	.
.	16dd\yy	.	.	.	.	.	.	.	.	.	.
.	16ee-\JJyy	.	.	.	.	.	.	.	.	.	.
4ryy	16ff\LLyy	.	.	.	.	.	.	.	.	.	.
.	16gg\yy	.	.	.	.	.	.	.	.	.	.
.	16aa\yy	.	.	.	.	.	.	.	.	.	.
.	16bb-\JJyy	.	.	.	.	.	.	.	.	.	.
=65	=65	=65	=65	=65	=65	=65	=65	=65	=65	=65	=65
*^	*	*	*	*	*	*	*	*	*	*	*
*tremolo	*	*	*	*	*	*	*	*	*	*	*	*
!	!	!LO:TX:t=P:problem=mixed beam	!	!	!	!	!	!	!	!	!	!
8d/Lyy	8F\Lyy	8bb-\Lyy	.	8B-/L	8d/L	.	.	.	.	.	.	.
8d/yy	8F\yy	8b-/Jyy	.	8B-/	8d/	.	.	.	.	.	.	.
*	*tremolo	*	*	*tremolo	*tremolo	*	*	*	*	*	*	*
!	!	!LO:TX:t=P:problem=fragment taktu nr 65 niewidoczny [defekt źródła]	!	!	!	!	!	!	!	!	!	!
8e-/yy	8F\yy	2ryy	.	8c/	8e-/	.	.	.	.	.	.	.
8e-/yy	8F\yy	.	.	8c/	8e-/	.	.	.	.	.	.	.
8e-/yy	8F\yy	.	.	8c/	8e-/	.	.	.	.	.	.	.
8e-/Jyy	8F\Jyy	.	.	8c/J	8e-/J	.	.	.	.	.	.	.
*	*Xtremolo	*	*	*Xtremolo	*Xtremolo	*	*	*	*	*	*	*
*v	*v	*	*	*	*	*	*	*	*	*	*	*
!LO:LB:g=original	!LO:LB:g=original	!	!LO:LB:g=original	!LO:LB:g=original	!	!	!	!	!	!	!
=66	=66	=66	=66	=66	=66	=66	=66	=66	=66	=66	=66
4B-\ 4d	4b-\	.	4B-/	4d/	.	.	.	.	.	.	.
4BB-/	4B-/	.	4B-/	4b- 4d/	.	.	.	.	.	.	.
4r	4r	.	4r	4r	.	.	.	.	.	.	.
=67	=67	=67	=67	=67	=67	=67	=67	=67	=67	=67	=67
!	!	!	!LO:TX:a:t=71.	!LO:TX:a:t=71	!	!	!	!	!	!	!
2.ryy	8ddL 8b-\	.	0.r	0.r	2.r	.	.	8B-\	Je-	8dd\	Je-
.	16ccL 16a\	.	.	.	.	.	.	16A\	-ze-	16cc\	-ze-
.	16ddJJ 16b-\	.	.	.	.	.	.	16B-\	-li	16dd\	-li
.	8ee-L 8cc\	.	.	.	.	.	.	8c\	u-	8ee-\	u-
.	8ddJ 8b-\	.	.	.	.	.	.	8B-\	-wa-	8dd\	-wa-
.	8ee-L 8cc\	.	.	.	.	.	.	8c\	-rza-	8ee-\	-rza-
.	8ffJ 8dd\	.	.	.	.	.	.	8d\	-my	8ff\	-my
=68	=68	=68	=68	=68	=68	=68	=68	=68	=68	=68	=68
4A 4AA\	4gg 4ee- 4cc\	.	.	.	4A\	Zło-	.	4e-\	zło-	4gg\	zło-
4B- 4BB-\	4ff 4dd\	.	.	.	4B-\	-sci	.	4d\	-sci	4ff\	-sci
4r	4r	.	.	.	4r	.	.	4r	.	4r	.
=69	=69	=69	=69	=69	=69	=69	=69	=69	=69	=69	=69
*	*	*	*	*	*	*ij	*	*	*ij	*	*ij
4F#X 4FF#y\	4ee- 4cc 4a\	.	.	.	4F#X\	Zło-	.	4c\	zło-	4ee-\	zło-
4G 4GG\	4dd 4b-\	.	.	.	4G\	-sci	.	4B-\	-sci	4dd\	-sci
*	*	*	*	*	*	*Xij	*	*	*Xij	*	*Xij
4r	4r	.	.	.	4r	.	.	4r	.	4r	.
=70	=70	=70	=70	=70	=70	=70	=70	=70	=70	=70	=70
2E-\	4cc 4g\	.	.	.	0.r	.	.	1.r	.	4cc\	kto-
!	!	!	!	!	!	!	!	!	!	!LO:LB:g=original	!
.	8ddL 8g\	.	.	.	.	.	.	.	.	8dd\	-res-
.	8ee-J 8g\	.	.	.	.	.	.	.	.	8ee-\	-my
4F\	8.ddL 8.f\	.	.	.	.	.	.	.	.	8.dd\	po-
.	16ccJk 16e-\	.	.	.	.	.	.	.	.	16cc\	-peł-
=71	=71	=71	=71	=71	=71	=71	=71	=71	=71	=71	=71
4B-\	4cc 4e-/	.	0.r	0.r	.	.	.	.	.	4cc\	-ni-
4BB-/	4b- 4d/	.	.	.	.	.	.	.	.	4b-\	-li
4r	4r	.	.	.	.	.	.	.	.	4r	.
=72	=72	=72	=72	=72	=72	=72	=72	=72	=72	=72	=72
*	*	*	*	*	*	*	*	*	*	*	*ij
2F\	4ee- 4cc\	.	.	.	.	.	.	4c\	kto-	4ee-\	kto-
.	8ffL 8dd\	.	.	.	.	.	.	8d\	-res-	8ff\	-res-
.	8ggJ 8ee-\	.	.	.	.	.	.	8e-\	-my	8gg\	-my
4FF/	8.ffL 8.dd\	.	.	.	.	.	.	8.d\	po-	8.ff\	po-
.	16ee-Jk 16cc\	.	.	.	.	.	.	16c\	-peł-	16ee-\	-peł-
=73	=73	=73	=73	=73	=73	=73	=73	=73	=73	=73	=73
4BB-/	4ee- 4cc\	.	.	.	.	.	.	4c\	-ni-	4ee-\	-ni-
8B-\L	4dd 4b-\	.	.	.	.	.	.	4B-\	-li	4dd\	-li
*	*	*	*	*	*	*	*	*	*	*	*Xij
8F\	.	.	.	.	.	.	.	.	.	.	.
8D\	4r	.	.	.	.	.	.	4r	.	4r	.
8BB-\J	.	.	.	.	.	.	.	.	.	.	.
!LO:PB:g=original	!LO:PB:g=original	!	!	!	!LO:LB:g=original	!	!	!LO:LB:g=original	!	!	!
=74	=74	=74	=74	=74	=74	=74	=74	=74	=74	=74	=74
!LO:TX:t=P:problem=mixed beam	!	!	!	!	!	!	!	!	!	!	!
8FF/L	4cc 4a\	.	.	.	4F\	mniey	.	4A\	Mniey	4cc\	mniey
8F\J	.	.	.	.	.	.	.	.	.	.	.
*tremolo	*	*	*	*	*	*	*	*	*	*	*
8F\L	8ccL 8a\	.	.	.	8F\	da-	.	8A\	da-	8cc\	da-
8F\	8cc 8a\	.	.	.	8F\	-le-	.	8A\	-le-	8cc\	-le-
!	!	!	!	!	!	!	!	!	!	!LO:LB:g=original	!
8F\	8cc 8a\	.	.	.	8F\	-ko	.	8A\	-ko	8cc\	-ko
8F\J	8ccJ 8a\	.	.	.	8F\	cier-	.	8A\	cier-	8cc\	cier-
*Xtremolo	*	*	*	*	*	*	*	*	*	*	*
=75	=75	=75	=75	=75	=75	=75	=75	=75	=75	=75	=75
!LO:TX:t=P:problem=mixed beam	!	!	!	!	!	!	!	!	!	!	!
8FF/L	4dd 4b-\	.	0.r	0.r	4F\	-pie-	.	4B-\	-pie-	4dd\	-pie-
8F\J	.	.	.	.	.	.	.	.	.	.	.
*tremolo	*	*	*	*	*	*	*	*	*	*	*
8F\L	4b- 4d/	.	.	.	4F\	-my	.	4F/	-my	4b-\	-my
8F\	.	.	.	.	.	.	.	.	.	.	.
8F\	8r	.	.	.	8r	.	.	8r	.	8r	.
*	*	*	*	*	*	*ij	*	*	*ij	*	*ij
8F\J	8dd 8bn\	.	.	.	8F\	cier-	.	8Bn\	cier-	8dd\	cier-
*Xtremolo	*	*	*	*	*	*	*	*	*	*	*
=76	=76	=76	=76	=76	=76	=76	=76	=76	=76	=76	=76
!LO:TX:t=P:problem=mixed beam	!	!	!	!	!	!	!	!	!	!	!
8FF/L	4ee- 4cc\	.	.	.	4F\	-pie-	.	4c\	-pie-	4ee-\	-pie-
8F\J	.	.	.	.	.	.	.	.	.	.	.
*tremolo	*	*	*	*	*	*	*	*	*	*	*
8F\L	4cc 4a\	.	.	.	4F\	-my	.	4A\	-my	4cc\	-my
*	*	*	*	*	*	*Xij	*	*	*	*	*Xij
8F\	.	.	.	.	.	.	.	.	.	.	.
8F\	8r	.	.	.	8r	.	.	8r	.	4r	.
8F\J	8ee- 8cc\	.	.	.	24F\LL	cier-	.	8c#X\	cier-	.	.
.	.	.	.	.	24G\	.	.	.	.	.	.
.	.	.	.	.	24A\JJ	.	.	.	.	.	.
*Xtremolo	*	*	*	*	*	*	*	*	*	*	*
=77	=77	=77	=77	=77	=77	=77	=77	=77	=77	=77	=77
4BB-/	4ff 4dd\	.	.	.	4B-\	-pie-	.	4d\	-pie-	4ff\	pie-
4B-\	4dd 4b-\	.	.	.	4BB-/	-my	.	4B-X\	-my	4dd\	-my
*	*	*	*	*	*	*	*	*	*Xij	*	*
4r	4r	.	.	.	4r	.	.	4r	.	4r	.
=78	=78	=78	=78	=78	=78	=78	=78	=78	=78	=78	=78
8r	4ff\	.	.	.	0.r	.	.	0.r	.	4ff\	mniey
8FL 8D\	.	.	.	.	.	.	.	.	.	.	.
*tremolo	*	*	*	*	*	*	*	*	*	*	*
8F 8D\	8ee-\L	.	.	.	.	.	.	.	.	8ee-\	da-
8F 8D\	8dd\	.	.	.	.	.	.	.	.	8dd\	-le-
8F 8D\	8cc\	.	.	.	.	.	.	.	.	8cc\	-ko
8FJ 8D\	8bn\J	.	.	.	.	.	.	.	.	8bn\	cier-
*Xtremolo	*	*	*	*	*	*	*	*	*	*	*
!	!	!	!	!	!	!	!	!	!	!LO:LB:g=original	!
=79	=79	=79	=79	=79	=79	=79	=79	=79	=79	=79	=79
8r	16dd\LL	.	0.r	0.r	.	.	.	.	.	16dd\LL	-pie-
.	16cc\	.	.	.	.	.	.	.	.	16cc\	.
8GL 8E-\	16bn\	.	.	.	.	.	.	.	.	16bn\	.
.	16cc\JJ	.	.	.	.	.	.	.	.	16cc\JJ	.
*tremolo	*	*	*	*	*	*	*	*	*	*	*
8G 8E-\	4cc\	.	.	.	.	.	.	.	.	4cc\	-my
8G 8E-\	.	.	.	.	.	.	.	.	.	.	.
8G 8E-\	4r	.	.	.	.	.	.	.	.	4r	.
8GJ 8E-\	.	.	.	.	.	.	.	.	.	.	.
*Xtremolo	*	*	*	*	*	*	*	*	*	*	*
=80	=80	=80	=80	=80	=80	=80	=80	=80	=80	=80	=80
8r	8ee-\L	.	.	.	.	.	.	.	.	8ee-\	ni-
8AL 8F\	8ee-\J	.	.	.	.	.	.	.	.	8ee-\	-że-
*tremolo	*	*	*	*	*	*	*	*	*	*	*
8A 8F\	8dd\L	.	.	.	.	.	.	.	.	8dd\	-lis
8A 8F\	8cc\	.	.	.	.	.	.	.	.	8cc\	my
8A 8F\	8b-\	.	.	.	.	.	.	.	.	8b-\	za-
8AJ 8F\	8a\J	.	.	.	.	.	.	.	.	8a\	-słu-
*Xtremolo	*	*	*	*	*	*	*	*	*	*	*
=81	=81	=81	=81	=81	=81	=81	=81	=81	=81	=81	=81
8r	16cc\LL	.	.	.	.	.	.	.	.	16cc\LL	-zy-
.	16b-X\	.	.	.	.	.	.	.	.	16b-X\	.
8B-L 8G\	16a\	.	.	.	.	.	.	.	.	16a\	.
.	16b-\JJ	.	.	.	.	.	.	.	.	16b-\JJ	.
8B- 8G\	4b-\	.	.	.	.	.	.	.	.	4b-\	-li
8B- 8G\	.	.	.	.	.	.	.	.	.	.	.
8A 8F\	4r	.	.	.	.	.	.	.	.	4r	.
8GJ 8E-\	.	.	.	.	.	.	.	.	.	.	.
!LO:LB:g=original	!LO:LB:g=original	!	!	!	!	!	!	!	!	!	!
=82	=82	=82	=82	=82	=82	=82	=82	=82	=82	=82	=82
8r	4ff\	.	.	.	0.r	.	.	0.r	.	4ff\	mniey
8FL 8D\	.	.	.	.	.	.	.	.	.	.	.
*tremolo	*	*	*	*	*	*	*	*	*	*	*
8F 8D\	8ee-\L	.	.	.	.	.	.	.	.	8ee-\	da-
8F 8D\	8dd\	.	.	.	.	.	.	.	.	8dd\	-le-
8F 8D\	8cc\	.	.	.	.	.	.	.	.	8cc\	-ko
8FJ 8D\	8bn\J	.	.	.	.	.	.	.	.	8bn\	cier-
*Xtremolo	*	*	*	*	*	*	*	*	*	*	*
!	!	!	!	!	!	!	!	!	!	!LO:LB:g=original	!
=83	=83	=83	=83	=83	=83	=83	=83	=83	=83	=83	=83
8r	(16cc\LL	.	0.r	0.r	.	.	.	.	.	(16cc\LL	-pie-
!	!LO:SIC:v:s=16bn\	!	!	!	!	!	!	!	!	!LO:SIC:v:s=16bn\	!
.	16b-\	.	.	.	.	.	.	.	.	16b-\	.
8GL 8E-\	16cc\	.	.	.	.	.	.	.	.	16cc\	.
.	16dd\JJ)	.	.	.	.	.	.	.	.	16dd\JJ)	.
*tremolo	*	*	*	*	*	*	*	*	*	*	*
8G 8E-\	(16ee-\LL	.	.	.	.	.	.	.	.	(16ee-\LL	.
.	16dd\	.	.	.	.	.	.	.	.	16dd\	.
8G 8E-\	16ee-\	.	.	.	.	.	.	.	.	16ee-\	.
.	16ff\JJ)	.	.	.	.	.	.	.	.	16ff\JJ)	.
8G 8E-\	4gg\	.	.	.	.	.	.	.	.	4gg\	-my
8GJ 8E-\	.	.	.	.	.	.	.	.	.	.	.
*Xtremolo	*	*	*	*	*	*	*	*	*	*	*
=84	=84	=84	=84	=84	=84	=84	=84	=84	=84	=84	=84
4F 4D\	8ffL 8dd\	.	.	.	.	.	.	.	.	8ff\	ni-
.	8ffJ 8dd\	.	.	.	.	.	.	.	.	8ff\	-ze-
4E-\	8ggL 8ee-\	.	.	.	.	.	.	.	.	8gg\	-lis
.	8ff 8dd\	.	.	.	.	.	.	.	.	8ff\	my
8r	8ee- 8cc\	.	.	.	.	.	.	.	.	8ee-\	za-
8En\	8ddJ 8b-\	.	.	.	.	.	.	.	.	8dd\	-słu-
=85	=85	=85	=85	=85	=85	=85	=85	=85	=85	=85	=85
4F\	16ee-LL 16cc\	.	.	.	.	.	.	.	.	(16ee-\LL	-zi-
.	16dd 16b-\	.	.	.	.	.	.	.	.	16dd\	.
.	16cc 16a\	.	.	.	.	.	.	.	.	16cc\	.
.	16ddJJ 16b-\	.	.	.	.	.	.	.	.	16dd\JJ)	.
4FF/	4cc 4a\	.	.	.	.	.	.	.	.	4cc\	-li
4r	4r	.	.	.	.	.	.	.	.	4r	.
=86	=86	=86	=86	=86	=86	=86	=86	=86	=86	=86	=86
!LO:TX:t=P:problem=mixed beam	!	!	!	!	!	!	!	!	!	!	!
8FF/L	2cc 2a 2f\	.	.	.	2F\	Cię-	.	2A\	Cię-	2cc\	Cię-
*tremolo	*	*	*	*	*	*	*	*	*	*	*
8F\	.	.	.	.	.	.	.	.	.	.	.
8F\	.	.	.	.	.	.	.	.	.	.	.
8F\	.	.	.	.	.	.	.	.	.	.	.
8F\	4cc 4a 4f\	.	.	.	4F\	-sze	.	4A\	-sze	4cc\	-sze
8F\J	.	.	.	.	.	.	.	.	.	.	.
*Xtremolo	*	*	*	*	*	*	*	*	*	*	*
!	!	!	!	!	!	!	!	!	!	!LO:PB:g=original	!
=87	=87	=87	=87	=87	=87	=87	=87	=87	=87	=87	=87
!LO:TX:t=P:problem=mixed beam	!	!	!	!	!	!	!	!	!	!	!
8EEn/L	2cc 2b- 2g\	.	0.r	0.r	2En\	to	.	2B-\	to	2cc\	to
*tremolo	*	*	*	*	*	*	*	*	*	*	*
8Eny\	.	.	.	.	.	.	.	.	.	.	.
8E\	.	.	.	.	.	.	.	.	.	.	.
8E\	.	.	.	.	.	.	.	.	.	.	.
8E\	4cc 4b- 4g\	.	.	.	4E\	iest	.	4B-\	iest	4cc\	iest
8E\J	.	.	.	.	.	.	.	.	.	.	.
*Xtremolo	*	*	*	*	*	*	*	*	*	*	*
=88	=88	=88	=88	=88	=88	=88	=88	=88	=88	=88	=88
4F 4FF\	8ccL 8a\	.	.	.	8F\	do	.	8A\	do	8cc\	do
.	8cc 8a\	.	.	.	8F\	cze-	.	8A\	cze-	8cc\	cze-
!	!	!	!	!	!LO:LB:g=original	!	!	!	!	!	!
4r	8dd 8b-\	.	.	.	8F\	-go	.	8B-\	-go	8dd\	-go
.	8ccJ 8a\	.	.	.	8F\	sie	.	8A\	się	8cc\	się
4r	8ffL 8a\	.	.	.	8F\	zna-	.	8A\	zna-	8ff\	zna-
.	8ddJ 8b-\	.	.	.	8F\	-my	.	8B-\	-my	8dd\	-my
=89	=89	=89	=89	=89	=89	=89	=89	=89	=89	=89	=89
2F\	8ccL 8a/	.	.	.	8F\	byc	.	8A\	byc	8cc\	byc
.	8aJ 8f/	.	.	.	8F\	win-	.	8F\	win-	8a\	win-
!	!	!	!	!	!	!	!	!LO:LB:g=original	!	!	!
.	4cc 4a/	.	.	.	2C/	-ne-	.	4A\	-ne-	4cc\	-ne-
!LO:LB:g=original	!LO:LB:g=original	!	!	!	!	!	!	!	!	!	!
4AA/	16ccLL 16a/	.	.	.	.	.	.	(16A\LL	.	(16cc\LL	.
.	16b- 16g/	.	.	.	.	.	.	16G\	.	16b-\	.
.	16a 16f/	.	.	.	.	.	.	16F\	.	16a\	.
.	16b-JJ 16g/	.	.	.	.	.	.	16G\JJ)	.	16b-\JJ)	.
=90	=90	=90	=90	=90	=90	=90	=90	=90	=90	=90	=90
!LO:TX:t=P:problem=mixed beam	!	!	!	!	!	!	!	!	!	!	!
8F\L	4a 4f/	.	.	.	4F\	-mi	.	4F/	-mi	4a\	-mi
8FF/	.	.	.	.	.	.	.	.	.	.	.
8AA/	4r	.	.	.	4r	.	.	4r	.	4r	.
8C/	.	.	.	.	.	.	.	.	.	.	.
8F/	4r	.	.	.	4r	.	.	4r	.	4r	.
8FF/J	.	.	.	.	.	.	.	.	.	.	.
!	!	!	!	!	!	!	!	!	!	!LO:LB:g=original	!
=91	=91	=91	=91	=91	=91	=91	=91	=91	=91	=91	=91
!LO:TX:t=P:problem=mixed beam	!	!	!	!	!	!	!	!	!	!	!
8FF/L	2cc 2a 2f\	.	0.r	0.r	2F\	lzey-	.	2A\	Lzey-	2cc\	lzey-
*tremolo	*	*	*	*	*	*	*	*	*	*	*
8F\	.	.	.	.	.	.	.	.	.	.	.
8F\	.	.	.	.	.	.	.	.	.	.	.
8F\	.	.	.	.	.	.	.	.	.	.	.
8F\	4cc 4a 4f\	.	.	.	4F\	-sze	.	4A\	-sze	4cc\	-sze
8F\J	.	.	.	.	.	.	.	.	.	.	.
*Xtremolo	*	*	*	*	*	*	*	*	*	*	*
=92	=92	=92	=92	=92	=92	=92	=92	=92	=92	=92	=92
*	*	*	*	*	*	*ij	*	*	*ij	*	*ij
!LO:TX:t=P:problem=mixed beam	!	!	!	!	!	!	!	!	!	!	!
8EEn/L	2cc 2b- 2g\	.	.	.	2En\	lzey-	.	2B-\	Lzey-	2cc\	lzey-
*tremolo	*	*	*	*	*	*	*	*	*	*	*
8Eny\	.	.	.	.	.	.	.	.	.	.	.
8E\	.	.	.	.	.	.	.	.	.	.	.
8E\	.	.	.	.	.	.	.	.	.	.	.
8E\	4cc 4b- 4g\	.	.	.	4E\	-sze	.	4B-\	-sze	4cc\	-sze
8E\J	.	.	.	.	.	.	.	.	.	.	.
*Xtremolo	*	*	*	*	*	*	*	*	*	*	*
=93	=93	=93	=93	=93	=93	=93	=93	=93	=93	=93	=93
4FF/	8ccL 8a\	.	.	.	8F\	lzey-	.	8A\	Lzey-	8cc\	lzey-
.	8cc 8a\	.	.	.	8F\	-sze	.	8A\	-sze	8cc\	-sze
*	*	*	*	*	*	*Xij	*	*	*Xij	*	*Xij
4F\	8ff 8a\	.	.	.	8F\	to	.	8A\	to	8ff\	to
.	8ccJ 8a\	.	.	.	8F\	co	.	8A\	co	8cc\	co
4r	8b-L 8g/	.	.	.	8En\	po-	.	8G\	po-	8b-\	po-
.	8aJ 8f/	.	.	.	8F\	-no-	.	8F\	-no-	8a\	-no-
=94	=94	=94	=94	=94	=94	=94	=94	=94	=94	=94	=94
4C/	16b-LL 16g/	.	.	.	4c\	-sie-	.	16G/LL	-sie-	16b-\LL	-sie-
.	16a 16f/	.	.	.	.	.	.	16F/	.	16a\	.
.	16g 16en/	.	.	.	.	.	.	16En/	.	16g\	.
.	16aJJ 16f/	.	.	.	.	.	.	16F/JJ	.	16a\JJ	.
4CC/	4g 4e/	.	.	.	4C/	-my	.	4E/	-my	4g\	-my
4r	4r	.	.	.	4r	.	.	4r	.	4r	.
=95	=95	=95	=95	=95	=95	=95	=95	=95	=95	=95	=95
*tremolo	*	*	*	*	*	*	*	*	*	*	*
.	16qqg/	.	.	.	.	.	.	.	.	.	.
8enL 8c\	4gg\	.	0.r	0.r	0.r	.	.	0.r	.	4gg\	ka-
8e 8c\	.	.	.	.	.	.	.	.	.	.	.
!	!LO:SIC:v:s=4een\	!	!	!	!	!	!	!	!	!LO:SIC:v:s=4een\	!
8e 8c\	4ee-\	.	.	.	.	.	.	.	.	4ee-\	-rę
8e 8c\	.	.	.	.	.	.	.	.	.	.	.
8e 8c\	4cc\	.	.	.	.	.	.	.	.	4cc\	za
8eJ 8c\	.	.	.	.	.	.	.	.	.	.	.
.	16qqdd/LL	.	.	.	.	.	.	.	.	.	.
!	!LO:SIC:v:s=16qqeen/JJ	!	!	!	!	!	!	!	!	!	!
.	16qqee-/JJ	.	.	.	.	.	.	.	.	.	.
!	!	!	!	!	!	!	!	!	!	!LO:LB:g=original	!
=96	=96	=96	=96	=96	=96	=96	=96	=96	=96	=96	=96
8cL 8A\	4ff 4a\	.	.	.	.	.	.	.	.	4ff\	grze-
8c 8A\	.	.	.	.	.	.	.	.	.	.	.
8c 8A\	4cc 4a\	.	.	.	.	.	.	.	.	4cc\	-chy
8c 8A\	.	.	.	.	.	.	.	.	.	.	.
8c 8A\	4r	.	.	.	.	.	.	.	.	4r	.
8cJ 8A\	.	.	.	.	.	.	.	.	.	.	.
*Xtremolo	*	*	*	*	*	*	*	*	*	*	*
!LO:LB:g=original	!LO:LB:g=original	!	!	!	!	!	!	!	!	!	!
=97	=97	=97	=97	=97	=97	=97	=97	=97	=97	=97	=97
4BB-/	8ddL 8g/	.	.	.	.	.	.	.	.	8dd\	do-
.	16b-/L	.	.	.	.	.	.	.	.	16b-\	-brze
.	16g/JJ	.	.	.	.	.	.	.	.	16g\	czu-
4C/	4f 4A/	.	.	.	.	.	.	.	.	4f/	-ie-
!	!LO:SIC:v:n=2:s=4en	!	!	!	!	!	!	!	!	!LO:SIC:v:s=4en/	!
4CC/	4e- 4G/	.	.	.	.	.	.	.	.	4e-/	.
=98	=98	=98	=98	=98	=98	=98	=98	=98	=98	=98	=98
8FF/L	4f 4A/	.	.	.	.	.	.	.	.	4f/	-my
8FF/	.	.	.	.	.	.	.	.	.	.	.
8AA/	4r	.	.	.	.	.	.	.	.	4r	.
8C/	.	.	.	.	.	.	.	.	.	.	.
8F/	4r	.	.	.	.	.	.	.	.	4r	.
8FF/J	.	.	.	.	.	.	.	.	.	.	.
=99	=99	=99	=99	=99	=99	=99	=99	=99	=99	=99	=99
.	16qqg/	.	.	.	.	.	.	.	.	.	.
*tremolo	*	*	*	*	*	*	*	*	*	*	*
!	!	!	!	!	!	!	!	!	!	!LO:TX:a:i:t=Solo	!
8enL 8c\	4gg\	.	0.r	0.r	1.r	.	.	1.r	.	4gg\	a
8e 8c\	.	.	.	.	.	.	.	.	.	.	.
!	!LO:SIC:v:s=4een\	!	!	!	!	!	!	!	!	!LO:SIC:v:s=4een\	!
8e 8c\	4ee-\	.	.	.	.	.	.	.	.	4ee-\	prze-
8e 8c\	.	.	.	.	.	.	.	.	.	.	.
8e 8c\	4cc\	.	.	.	.	.	.	.	.	4cc\	-cie
8eJ 8c\	.	.	.	.	.	.	.	.	.	.	.
.	16qqdd/LL	.	.	.	.	.	.	.	.	.	.
!	!LO:SIC:v:s=16qqeen/JJ	!	!	!	!	!	!	!	!	!	!
.	16qqee-/JJ	.	.	.	.	.	.	.	.	.	.
=100	=100	=100	=100	=100	=100	=100	=100	=100	=100	=100	=100
8cL 8A\	4ff 4a\	.	.	.	.	.	.	.	.	4ff\	grze-
8c 8A\	.	.	.	.	.	.	.	.	.	.	.
8c 8A\	4cc 4a\	.	.	.	.	.	.	.	.	4cc\	-szyc
8c 8A\	.	.	.	.	.	.	.	.	.	.	.
8c 8A\	8r	.	.	.	.	.	.	.	.	8r	.
8cJ 8A\	8cc 8a\	.	.	.	.	.	.	.	.	8cc\	po-
*Xtremolo	*	*	*	*	*	*	*	*	*	*	*
!	!	!	!	!	!	!	!	!	!	!LO:LB:g=original	!
=101	=101	=101	=101	=101	=101	=101	=101	=101	=101	=101	=101
4BB-/	8dd/L	.	.	.	2.r	.	.	2.r	.	8dd\	-prze-
.	16b-/L	.	.	.	.	.	.	.	.	16b-\	-stac
.	16g/JJ	.	.	.	.	.	.	.	.	16g\	nie
4C/	4f 4A/	.	.	.	.	.	.	.	.	4f/	chce-
!	!LO:SIC:v:n=1:s=4en	!	!	!	!	!	!	!	!	!LO:SIC:v:s=4en/	!
4CC/	4e- 4G/	.	.	.	.	.	.	.	.	4e-/	.
!	!	!	!	!	!LO:LB:g=original	!	!	!	!	!	!
=102	=102	=102	=102	=102	=102	=102	=102	=102	=102	=102	=102
4FF/	4f 4A/	.	.	.	4r	.	.	4r	.	4f/	-my
8r	8r	.	.	.	8r	.	.	8r	.	8r	.
8F#X\L	8ee-XL 8cc 8a\	.	.	.	8F#X\	a	.	8c\	A	8ee-X\	a
8F#\	8ee- 8cc 8a\	.	.	.	8F#\	prze-	.	8c\	prze-	8ee-\	prze-
8F#\J	8ee-J 8cc 8a\	.	.	.	8F#\	-cie	.	8c\	-cie	8ee-\	-cie
=103	=103	=103	=103	=103	=103	=103	=103	=103	=103	=103	=103
!LO:SIC:v:s=8F#\L	!	!	!	!	!LO:SIC:v:s=8F#\	!	!	!	!	!	!
8F\L	8ee-L 8cc 8a\	.	0.r	0.r	8F\	grze-	.	8c\	grze-	8ee-\	grze-
8G\J	8ddJ 8b-\	.	.	.	8G\	-szyc	.	8B-\	-szyc	8dd\	-szyc
8r	8r	.	.	.	8r	.	.	8r	.	8r	.
*	*	*	*	*	*	*ij	*	*	*ij	*	*ij
8En\L	8ddL 8b-\	.	.	.	8En\	a	.	8B-\	A	8dd\	a
8E\	8dd 8b-\	.	.	.	8E\	prze-	.	8B-\	prze-	8dd\	prze-
8E\J	8ddJ 8b-\	.	.	.	8E\	-cie	.	8B-\	-cie	8dd\	-cie
!LO:LB:g=original	!LO:LB:g=original	!	!	!	!	!	!	!LO:LB:g=original	!	!	!
=104	=104	=104	=104	=104	=104	=104	=104	=104	=104	=104	=104
!LO:SIC:v:s=8En\L	!	!	!	!	!LO:SIC:v:s=8En\	!	!	!	!	!	!
8E-\L	8ddL 8b-\	.	.	.	8E-\	grze-	.	8c\	grze-	8dd\	grze-
8F\J	8ccJ 8a\	.	.	.	8Fn\	-szyc	.	8A\	-szyc	8cc\	-szyc
*	*	*	*	*	*	*	*	*	*Xij	*	*Xij
!	!	!	!	!	!	!	!	!	!	!LO:LB:g=original	!
8r	8r	.	.	.	8r	.	.	8r	.	8r	.
8F\L	8ccL 8a\	.	.	.	8F\	a	.	8A\	A	8cc\	a
8F\	8cc 8a\	.	.	.	8F\	prze-	.	8A\	prze-	8cc\	prze-
8F\J	8ccJ 8a\	.	.	.	8F\	-cie	.	8A\	-cie	8cc\	-cie
=105	=105	=105	=105	=105	=105	=105	=105	=105	=105	=105	=105
2G 2GG\	2een 2cc 2b- 2g\	<	.	.	2G\	grze-	.	2B-\	grze-	2een\	grze-
4A 4AA\	8ffL 8cc 8a\	[	.	.	8A\	-szyc	.	8c\	-szyc	8ff\	-szyc
*	*	*	*	*	*	*Xij	*	*	*	*	*
.	8ccJ 8a\	.	.	.	8F\	po-	.	8A\	po-	8cc\	[po]-
=106	=106	=106	=106	=106	=106	=106	=106	=106	=106	=106	=106
!	!LO:TX:t=P:problem=takty nr 102-106 zapisane repetycją	!	!	!	!	!	!	!	!	!LO:TX:t=P:problem=takty nr 106-110 zapisane repetycją	!
4BB-/yy	8dd/Lyy	.	.	.	8B-\	-prze-	.	8B-\	-prze-	8dd\yy	-prze-
.	16b-/Lyy	.	.	.	16G\	-stac	.	16G\	-stac	16b-\yy	-stac
.	16g/JJyy	.	.	.	16B-\	nie	.	16B-\	nie	16g\yy	nie
4C/yy	4fyy 4A/yy	.	.	.	4c\	chce-	.	(4A\	chce-	4f/yy	chce-
!	!LO:SIC:v:n=1:s=4en	!	!	!	!	!	!	!	!	!LO:SIC:v:s=4en/	!
4CC/yy	4e-yy 4G/yy	.	.	.	4C/	.	.	4G\)	.	4e-/yy	.
=107	=107	=107	=107	=107	=107	=107	=107	=107	=107	=107	=107
4FF/yy	4fyy 4A/yy	.	0.r	0.r	4F\	-my	.	4A\	-my	4f/yy	-my
8ryy	8ryy	.	.	.	8r	.	.	8r	.	8ryy	.
!	!	!	!	!	!LO:LB:g=original	!	!	!	!	!	!
8F#X\Lyy	8ee-XLyy 8ccyy 8a\yy	.	.	.	8F#X\	a	.	8c\	A	8ee-X\yy	a
8F#\yy	8ee-yy 8ccyy 8a\yy	.	.	.	8F#\	prze-	.	8c\	prze-	8ee-\yy	prze-
8F#\Jyy	8ee-Jyy 8ccyy 8a\yy	.	.	.	8F#\	-cie	.	8c\	-cie	8ee-\yy	-cie
=108	=108	=108	=108	=108	=108	=108	=108	=108	=108	=108	=108
!LO:SIC:v:s=8F#\L	!	!	!	!	!LO:SIC:v:s=8F#\	!	!	!	!	!	!
8F\Lyy	8ee-Lyy 8ccyy 8a\yy	.	.	.	8F\	grze-	.	8c\	grze-	8ee-\yy	grze-
8G\Jyy	8ddJyy 8b-\yy	.	.	.	8G\	-szyc	.	8B-\	-szyc	8dd\yy	-szyc
8ryy	8ryy	.	.	.	8r	.	.	8r	.	8ryy	.
*	*	*	*	*	*	*ij	*	*	*ij	*	*ij
!	!	!	!	!	!	!	!	!	!	!LO:LB:g=original	!
8En\Lyy	8ddLyy 8b-\yy	.	.	.	8En\	a	.	8B-\	A	8dd\yy	a
8E\yy	8ddyy 8b-\yy	.	.	.	8E\	prze-	.	8B-\	prze-	8dd\yy	prze-
8E\Jyy	8ddJyy 8b-\yy	.	.	.	8E\	-cie	.	8B-\	-cie	8dd\yy	-cie
!LO:LB:g=original	!LO:LB:g=original	!	!	!	!	!	!	!	!	!	!
=109	=109	=109	=109	=109	=109	=109	=109	=109	=109	=109	=109
!LO:SIC:v:s=8En\L	!	!	!	!	!LO:SIC:v:s=8En\	!	!	!	!	!	!
8E-\Lyy	8ddLyy 8b-\yy	.	.	.	8E-\	grze-	.	8B-\	grze-	8dd\yy	grze-
8F\Jyy	8ccJyy 8a\yy	.	.	.	8Fn\	-szyc	.	8A\	-szyc	8cc\yy	-szyc
*	*	*	*	*	*	*	*	*	*	*	*Xij
8ryy	8ryy	.	.	.	8r	.	.	8r	.	8ryy	.
8F\Lyy	8ccLyy 8a\yy	.	.	.	8F\	a	.	8A\	A	8cc\yy	a
8F\yy	8ccyy 8a\yy	.	.	.	8F\	prze-	.	8A\	prze-	8cc\yy	prze-
8F\Jyy	8ccJyy 8a\yy	.	.	.	8F\	-cie	.	8A\	-cie	8cc\yy	-cie
!	!	!	!	!	!	!	!	!LO:LB:g=original	!	!	!
=110	=110	=110	=110	=110	=110	=110	=110	=110	=110	=110	=110
!	!	!	!	!	!	!	!LO:HP:a	!	!	!	!
2Gyy 2GG\yy	2eenyy 2ccyy 2b-yy 2g\yy	<	.	.	2G\	grze-	<	2B-\	grze-	2een\yy	grze-
4Ayy 4AA\yy	8ffLyy 8ccyy 8a\yy	[	.	.	8A\	-szyc	.	8c\	-szyc	8ff\yy	-szyc
*	*	*	*	*	*	*Xij	*	*	*Xij	*	*
.	8ccJyy 8a\yy	.	.	.	8F\	po-	[	8A\	po-	8cc\yy	po-
=111	=111	=111	=111	=111	=111	=111	=111	=111	=111	=111	=111
4B- 4BB-\	8ddL 8b-/	.	0.r	0.r	8B-\	-prze-	.	8B-\	-prze-	8dd\	-prze-
.	16b-/L	.	.	.	16G\	-stac	.	16G\	-stac	16b-\	-stac
.	16g/JJ	.	.	.	16B-\	nie	.	16B-\	nie	16g\	nie
4C/	4f 4A/	.	.	.	4c\	chce-	.	(4A\	chce-	4f/	chce-
!	!LO:SIC:v:n=1:s=4en	!	!	!	!	!	!	!	!	!LO:SIC:v:s=4en/	!
4CC/	4e- 4G/	.	.	.	4C/	.	.	4G\)	.	4e-/	.
=112	=112	=112	=112	=112	=112	=112	=112	=112	=112	=112	=112
!	!	!LO:DY:t=for	!	!	!	!	!	!	!	!	!
8FF/L	4f 4A/	f	.	.	4F\	-my	.	4A\	-my	4f/	-my
16GG/L	.	.	.	.	.	.	.	.	.	.	.
16AA/JJ	.	.	.	.	.	.	.	.	.	.	.
16BB-/LL	4r	.	.	.	4r	.	.	4r	.	4r	.
16C/	.	.	.	.	.	.	.	.	.	.	.
16D/	.	.	.	.	.	.	.	.	.	.	.
!LO:SIC:v:s=16En/JJ	!	!	!	!	!	!	!	!	!	!	!
16E-/JJ	.	.	.	.	.	.	.	.	.	.	.
4F\	4r	.	.	.	4r	.	.	4r	.	4r	.
!	!	!	!	!	!LO:LB:g=original	!	!	!	!	!	!
=113	=113	=113	=113	=113	=113	=113	=113	=113	=113	=113	=113
4C/	8r	.	.	.	4C/	ka-	.	0.r	.	0.r	.
.	8eenL 8b- 8g\	.	.	.	.	.	.	.	.	.	.
*	*tremolo	*	*	*	*	*	*	*	*	*	*
4c\	8ee 8b- 8g\	.	.	.	4c\	-rę	.	.	.	.	.
.	8ee 8b- 8g\	.	.	.	.	.	.	.	.	.	.
4B-X\	8ee 8b- 8g\	.	.	.	4B-\	za	.	.	.	.	.
.	8eeJ 8b- 8g\	.	.	.	.	.	.	.	.	.	.
*	*Xtremolo	*	*	*	*	*	*	*	*	*	*
=114	=114	=114	=114	=114	=114	=114	=114	=114	=114	=114	=114
4A\	8ffL 8a\	.	.	.	(4A\	grze-	.	.	.	.	.
.	8ff 8a\	.	.	.	.	.	.	.	.	.	.
!	!LO:SIC:v:n=1:s=8een	!	!	!	!	!	!	!	!	!	!
4G\	8ee- 8b-\	.	.	.	4G\)	.	.	.	.	.	.
!	!LO:SIC:v:n=1:s=8eenJ	!	!	!	!	!	!	!	!	!	!
.	8ee-J 8b-\	.	.	.	.	.	.	.	.	.	.
4F\	4ff 4a\	.	.	.	4F\	-chy	.	.	.	.	.
=115	=115	=115	=115	=115	=115	=115	=115	=115	=115	=115	=115
!LO:TX:t=P:problem=mixed beam	!	!	!	!	!	!	!	!	!	!	!
8BB-/L	8r	.	0.r	0.r	(4.d\	do-	.	.	.	.	.
8B-\	8ggL 8dd\	.	.	.	.	.	.	.	.	.	.
8B-\	8gg 8dd\	.	.	.	.	.	.	.	.	.	.
8B-\	8gg 8dd\	.	.	.	8B-\)	.	.	.	.	.	.
8d\	8gg 8b-\	.	.	.	8G\	-brze	.	.	.	.	.
8Bn\J	8ffJ 8a\	.	.	.	8F\	.	.	.	.	.	.
!LO:LB:g=original	!LO:LB:g=original	!	!	!	!	!	!	!	!	!	!
=116	=116	=116	=116	=116	=116	=116	=116	=116	=116	=116	=116
4c\	4ff 4a\	.	.	.	16G\LL	czu-	.	.	.	.	.
.	.	.	.	.	16F\	.	.	.	.	.	.
!	!	!	!	!	!LO:SIC:v:s=16En\	!	!	!	!	!	!
.	.	.	.	.	16E-\	-ie-	.	.	.	.	.
.	.	.	.	.	16F\JJ	.	.	.	.	.	.
!	!LO:SIC:v:n=1:s=4een	!	!	!	!	!	!	!	!	!	!
4C/	4ee- 4g\	.	.	.	4En\	-my	.	.	.	.	.
4r	4r	.	.	.	4r	.	.	.	.	.	.
!	!	!	!	!	!	!	!	!	!	!LO:LB:g=original	!
=117	=117	=117	=117	=117	=117	=117	=117	=117	=117	=117	=117
!	!	!	!	!	!	!	!	!	!	!LO:TX:a:i:t=Solo	!
8B-\L	4b-\	.	.	.	0.r	.	.	0.r	.	4b-\	a
8c\	.	.	.	.	.	.	.	.	.	.	.
8B-\	4gg\	.	.	.	.	.	.	.	.	4gg\	prze-
8c\	.	.	.	.	.	.	.	.	.	.	.
!	!LO:SIC:v::s=4een\	!	!	!	!	!	!	!	!	!LO:SIC:v::s=4een\	!
8B-\	4ee-\	.	.	.	.	.	.	.	.	4ee-\	-cie
8c\J	.	.	.	.	.	.	.	.	.	.	.
=118	=118	=118	=118	=118	=118	=118	=118	=118	=118	=118	=118
8A\L	4ff 4a\	.	.	.	.	.	.	.	.	4ff\	grze-
8c\	.	.	.	.	.	.	.	.	.	.	.
8A\	4cc 4a\	.	.	.	.	.	.	.	.	4cc\	-szyc
8c\	.	.	.	.	.	.	.	.	.	.	.
8A\	8r	.	.	.	.	.	.	.	.	8r	.
8c\J	8cc\	.	.	.	.	.	.	.	.	8cc\	po-
=119	=119	=119	=119	=119	=119	=119	=119	=119	=119	=119	=119
4BB-/	8dd/L	.	0.r	0.r	.	.	.	.	.	8dd\	-prze-
.	16b-/L	.	.	.	.	.	.	.	.	16b-\	-stac
.	16g/JJ	.	.	.	.	.	.	.	.	16g\	nie
4C/	4f 4A/	.	.	.	.	.	.	.	.	4f/	chce-
!	!LO:SIC:v:n=1:s=4en	!	!	!	!	!	!	!	!	!LO:SIC:v:s=4en/	!
4CC/	4e- 4G/	.	.	.	.	.	.	.	.	4e-/	.
=120	=120	=120	=120	=120	=120	=120	=120	=120	=120	=120	=120
!	!LO:TX:t=P:problem=takty nr 120-127 zapisane repetycją	!LO:DY:t=for	!	!	!	!	!	!	!	!LO:TX:t=P:problem=takty nr 120-127 zapisane repetycją	!
8FF/Lyy	4fyy 4A/yy	fy	.	.	.	.	.	.	.	4f/yy	-my
16GG/Lyy	.	.	.	.	.	.	.	.	.	.	.
16AA/JJyy	.	.	.	.	.	.	.	.	.	.	.
16BB-/LLyy	4ryy	.	.	.	.	.	.	.	.	4ryy	.
16C/yy	.	.	.	.	.	.	.	.	.	.	.
16D/yy	.	.	.	.	.	.	.	.	.	.	.
!LO:SIC:v:s=16En/JJ	!	!	!	!	!	!	!	!	!	!	!
16E-/JJyy	.	.	.	.	.	.	.	.	.	.	.
4F\yy	4ryy	.	.	.	.	.	.	.	.	4ryy	.
=121	=121	=121	=121	=121	=121	=121	=121	=121	=121	=121	=121
*	*	*	*	*	*	*ij	*	*	*	*	*
4C/yy	8ryy	.	.	.	4C/	ka-	.	0.r	.	0.ryy	.
.	8eenLyy 8b-yy 8g\yy	.	.	.	.	.	.	.	.	.	.
*	*tremolo	*	*	*	*	*	*	*	*	*	*
!	!	!	!	!	!	!	!LO:HP:a	!	!	!	!
4c\yy	8eeyy 8b-yy 8g\yy	.	.	.	4c\	-rę	<	.	.	.	.
.	8eeyy 8b-yy 8g\yy	.	.	.	.	.	.	.	.	.	.
4B-X\yy	8eeyy 8b-yy 8g\yy	.	.	.	4B-\	za	[[	.	.	.	.
.	8eeJyy 8b-yy 8g\yy	.	.	.	.	.	.	.	.	.	.
*	*Xtremolo	*	*	*	*	*	*	*	*	*	*
=122	=122	=122	=122	=122	=122	=122	=122	=122	=122	=122	=122
4A\yy	8ffLyy 8a\yy	.	.	.	4A\	grze-	.	.	.	.	.
.	8ffyy 8a\yy	.	.	.	.	.	.	.	.	.	.
!	!LO:SIC:v:n=1:s=8een	!	!	!	!	!	!	!	!	!	!
4G\yy	8ee-yy 8b-\yy	.	.	.	4G\	.	.	.	.	.	.
!	!LO:SIC:v:n=1:s=8eenJ	!	!	!	!	!	!	!	!	!	!
.	8ee-Jyy 8b-\yy	.	.	.	.	.	.	.	.	.	.
4F\yy	4ffyy 4a\yy	.	.	.	4F\	-chy	.	.	.	.	.
=123	=123	=123	=123	=123	=123	=123	=123	=123	=123	=123	=123
!LO:TX:t=P:problem=mixed beam	!	!	!	!	!	!	!	!	!	!	!
8BB-/Lyy	8ryy	.	0.r	0.r	4.d\	do-	.	.	.	.	.
8B-\yy	8ggLyy 8dd\yy	.	.	.	.	.	.	.	.	.	.
8B-\yy	8ggyy 8dd\yy	.	.	.	.	.	.	.	.	.	.
8B-\yy	8ggyy 8dd\yy	.	.	.	8B-\	.	.	.	.	.	.
8d\yy	8ggyy 8b-\yy	.	.	.	8G\	-brze	.	.	.	.	.
8Bn\Jyy	8ffJyy 8a\yy	.	.	.	8F\	.	.	.	.	.	.
!LO:LB:g=original	!LO:LB:g=original	!	!	!	!	!	!	!	!	!	!
=124	=124	=124	=124	=124	=124	=124	=124	=124	=124	=124	=124
4c\yy	4ffyy 4a\yy	.	.	.	16G\LL	czu-	.	.	.	.	.
.	.	.	.	.	16F\	.	.	.	.	.	.
!	!	!	!	!	!LO:SIC:v:s=16En\	!	!	!	!	!	!
.	.	.	.	.	16E-\	-ie-	.	.	.	.	.
.	.	.	.	.	16F\JJ	.	.	.	.	.	.
!	!LO:SIC:v:n=1:s=4een	!	!	!	!	!	!	!	!	!	!
4C/yy	4ee-yy 4g\yy	.	.	.	4En\	-my	.	.	.	.	.
*	*	*	*	*	*	*Xij	*	*	*	*	*
4ryy	4ryy	.	.	.	4r	.	.	.	.	.	.
!	!	!	!	!	!LO:LB:g=original	!	!	!	!	!LO:LB:g=original	!
=125	=125	=125	=125	=125	=125	=125	=125	=125	=125	=125	=125
!	!	!	!	!	!	!	!	!	!	!LO:TX:a:i:t=Solo	!
8B-\Lyy	4b-\yy	.	.	.	1.r	.	.	1.r	.	4b-\yy	a
8c\yy	.	.	.	.	.	.	.	.	.	.	.
8B-\yy	4gg\yy	.	.	.	.	.	.	.	.	4gg\yy	prze-
8c\yy	.	.	.	.	.	.	.	.	.	.	.
!	!LO:SIC:v::s=4een\	!	!	!	!	!	!	!	!	!LO:SIC:v::s=4een\	!
8B-\yy	4ee-\yy	.	.	.	.	.	.	.	.	4ee-\yy	-cie
8c\Jyy	.	.	.	.	.	.	.	.	.	.	.
=126	=126	=126	=126	=126	=126	=126	=126	=126	=126	=126	=126
8A\Lyy	4ffyy 4a\yy	.	.	.	.	.	.	.	.	4ff\yy	grze-
8c\yy	.	.	.	.	.	.	.	.	.	.	.
8A\yy	4ccyy 4a\yy	.	.	.	.	.	.	.	.	4cc\yy	-szyc
8c\yy	.	.	.	.	.	.	.	.	.	.	.
8A\yy	8ryy	.	.	.	.	.	.	.	.	8ryy	.
8c\Jyy	8cc\yy	.	.	.	.	.	.	.	.	8cc\yy	po-
=127	=127	=127	=127	=127	=127	=127	=127	=127	=127	=127	=127
4BB-/yy	8dd/Lyy	.	0.r	0.r	2.r	.	.	2.r	.	8dd\yy	-prze-
.	16b-/Lyy	.	.	.	.	.	.	.	.	16b-\yy	-stac
.	16g/JJyy	.	.	.	.	.	.	.	.	16g\yy	nie
4C/yy	4fyy 4A/yy	.	.	.	.	.	.	.	.	4f/yy	chce-
!	!LO:SIC:v:n=1:s=4en	!	!	!	!	!	!	!	!	!LO:SIC:v:s=4en/	!
4CC/yy	4e-yy 4G/yy	.	.	.	.	.	.	.	.	4e-/yy	.
=128	=128	=128	=128	=128	=128	=128	=128	=128	=128	=128	=128
4FF/	4f 4A/	.	.	.	4r	.	.	4r	.	4f/	-my
8r	8r	.	.	.	8r	.	.	8r	.	8r	.
8F#X\L	8ee-XL 8cc 8a\	.	.	.	8F#X\	a	.	8c\	A	8ee-X\	a
8F#\	8ee- 8cc 8a\	.	.	.	8F#\	prze-	.	8c\	prze-	8ee-\	prze-
8F#\J	8ee-J 8cc 8a\	.	.	.	8F#\	-cie	.	8c\	-cie	8ee-\	-cie
!	!	!	!	!	!	!	!	!	!	!LO:LB:g=original	!
=129	=129	=129	=129	=129	=129	=129	=129	=129	=129	=129	=129
!LO:SIC:v:s=8F#\L	!	!	!	!	!LO:SIC:v:s=8F#\	!	!	!	!	!	!
8F\L	8ee-L 8cc 8a\	.	.	.	8F\	grze-	.	8c\	grze-	8ee-\	grze-
8G\J	8ddJ 8b-\	.	.	.	8G\	-szyc	.	8B-\	-szyc	8dd\	-szyc
8r	8r	.	.	.	8r	.	.	8r	.	8r	.
*	*	*	*	*	*	*ij	*	*	*ij	*	*ij
8En\L	8ddL 8b-\	.	.	.	8En\	a	.	8B-\	A	8dd\	a
8E\	8dd 8b-\	.	.	.	8E\	prze-	.	8B-\	prze-	8dd\	prze-
8E\J	8ddJ 8b-\	.	.	.	8E\	-cie	.	8B-\	-cie	8dd\	-cie
=130	=130	=130	=130	=130	=130	=130	=130	=130	=130	=130	=130
!LO:SIC:v:s=8En\L	!	!	!	!	!LO:SIC:v:s=8En\	!	!	!	!	!	!
8E-\L	8ddL 8b-\	.	.	.	8E-\	grze-	.	8B-\	grze-	8dd\	grze-
8F\J	8ccJ 8a\	.	.	.	8Fn\	-szyc	.	8A\	-szyc	8cc\	-szyc
8r	8r	.	.	.	8r	.	.	8r	.	8r	.
8F\L	8ccL 8a\	.	.	.	8F\	a	.	8A\	A	8cc\	a
8F\	8cc 8a\	.	.	.	8F\	prze-	.	8A\	prze-	8cc\	prze-
8F\J	8ccJ 8a\	.	.	.	8F\	-cie	.	8A\	-cie	8cc\	-cie
!LO:LB:g=original	!LO:LB:g=original	!	!	!	!	!	!	!	!	!	!
=131	=131	=131	=131	=131	=131	=131	=131	=131	=131	=131	=131
2G 2GG\	2een 2cc 2b- 2g\	<	0.r	0.r	2G\	grze-	.	2B-\	grze-	2een\	grze-
4A 4AA\	8ffL 8cc 8a\	[	.	.	8A\	-szyc	.	8c\	-szyc	8ff\	-szyc
*	*	*	*	*	*	*Xij	*	*	*Xij	*	*Xij
.	8ccJ 8a\	.	.	.	8F\	po-	.	8A\	po-	8cc\	po-
!	!	!	!	!	!	!	!	!LO:LB:g=original	!	!	!
=132	=132	=132	=132	=132	=132	=132	=132	=132	=132	=132	=132
4B- 4BB-\	8ddL 8b-/	.	.	.	8B-\	-prze-	.	8B-\	-prze-	8dd\	-prze-
.	16b-/L	.	.	.	16G\	-stac	.	16G\	-stac	16b-\	-stac
.	16g/JJ	.	.	.	16B-\	nie	.	16B-\	nie	16g\	nie
!	!	!	!	!	!	!	!	!	!	!LO:LB:g=original	!
4C/	4f 4A/	.	.	.	4c\	chce-	.	(4A\	chce-	4f/	chce-
!	!LO:SIC:v:n=1:s=4en	!	!	!	!	!	!	!	!	!LO:SIC:v:s=4en/	!
4CC/	4e- 4G/	.	.	.	4C/	.	.	4G\)	.	4e-/	.
!	!	!	!	!	!LO:LB:g=original	!	!	!	!	!	!
=133	=133	=133	=133	=133	=133	=133	=133	=133	=133	=133	=133
!	!LO:TX:t=P:problem=takty nr 133-137 zapisane repetycją	!	!	!	!	!	!	!	!	!LO:TX:t=P:problem=takty nr 133-137 zapisane repetycją	!
4FF/yy	4fyy 4A/yy	.	.	.	4F\	-my	.	4A\	-my	4f/yy	-my
8ryy	8ryy	.	.	.	8r	.	.	8r	.	8ryy	.
8F#X\Lyy	8ee-XLyy 8ccyy 8a\yy	.	.	.	8F#X\	a	.	8c\	A	8ee-X\yy	a
8F#\yy	8ee-yy 8ccyy 8a\yy	.	.	.	8F#\	prze-	.	8c\	prze-	8ee-\yy	prze-
8F#\Jyy	8ee-Jyy 8ccyy 8a\yy	.	.	.	8F#\	-cie	.	8c\	-cie	8ee-\yy	-cie
=134	=134	=134	=134	=134	=134	=134	=134	=134	=134	=134	=134
!LO:SIC:v:s=8F#\L	!	!	!	!	!	!	!	!	!	!	!
8F\Lyy	8ee-Lyy 8ccyy 8a\yy	.	.	.	8F#X\	grze-	.	8c\	grze-	8ee-\yy	grze-
8G\Jyy	8ddJyy 8b-\yy	.	.	.	8G\	-szyc	.	8B-\	-szyc	8dd\yy	-szyc
8ryy	8ryy	.	.	.	8r	.	.	8r	.	8ryy	.
*	*	*	*	*	*	*ij	*	*	*ij	*	*ij
8En\Lyy	8ddLyy 8b-\yy	.	.	.	8En\	a	.	8B-\	A	8dd\yy	a
8E\yy	8ddyy 8b-\yy	.	.	.	8E\	prze-	.	8B-\	prze-	8dd\yy	prze-
8E\Jyy	8ddJyy 8b-\yy	.	.	.	8E\	-cie	.	8B-\	-cie	8dd\yy	-cie
=135	=135	=135	=135	=135	=135	=135	=135	=135	=135	=135	=135
!LO:SIC:v:s=8En\L	!	!	!	!	!LO:SIC:v:s=8En\	!	!	!	!	!	!
8E-\Lyy	8ddLyy 8b-\yy	.	1.r	1.r	8E-\	grze-	.	8B-\	grze-	8dd\yy	grze-
8F\Jyy	8ccJyy 8a\yy	.	.	.	8Fn\	-szyc	.	8A\	-szyc	8cc\yy	-szyc
8ryy	8ryy	.	.	.	8r	.	.	8r	.	8ryy	.
8F\Lyy	8ccLyy 8a\yy	.	.	.	8F\	a	.	8A\	A	8cc\yy	a
8F\yy	8ccyy 8a\yy	.	.	.	8F\	prze-	.	8A\	prze-	8cc\yy	prze-
8F\Jyy	8ccJyy 8a\yy	.	.	.	8F\	-cie	.	8A\	-cie	8cc\yy	-cie
!LO:LB:g=original	!LO:LB:g=original	!	!	!	!	!	!	!	!	!	!
=136	=136	=136	=136	=136	=136	=136	=136	=136	=136	=136	=136
2Gyy 2GG\yy	2eenyy 2ccyy 2b-yy 2g\yy	<	.	.	2G\	grze-	.	2B-\	grze-	2een\yy	grze-
!	!	!	!	!	!	!	!LO:DY:a	!	!	!	!
4Ayy 4AA\yy	8ffLyy 8ccyy 8a\yy	[	.	.	8A\	-szyc	<	8c\	-szyc	8ff\yy	-szyc
*	*	*	*	*	*	*Xij	*	*	*Xij	*	*Xij
.	8ccJyy 8a\yy	.	.	.	8F\	po-	[	8A\	po-	8cc\yy	po-
=137	=137	=137	=137	=137	=137	=137	=137	=137	=137	=137	=137
4B-yy 4BB-\yy	8ddLyy 8b-/yy	.	2.r	2.r	8B-\	-prze-	.	8B-\	-prze-	8dd\yy	-prze-
.	16b-/Lyy	.	.	.	16G\	-stac	.	16G\	-stac	16b-\yy	-stac
.	16g/JJyy	.	.	.	16B-\	nie	.	16B-\	nie	16g\yy	nie
!	!	!	!	!	!	!	!	!	!	!LO:LB:g=original	!
4C/yy	4fyy 4A/yy	.	.	.	4c\	chce-	.	(4A\	chce-	4f/yy	chce-
!	!LO:SIC:v:n=1:s=4en	!	!	!	!	!	!	!	!	!LO:SIC:v:s=4en/	!
4CC/yy	4e-yy 4G/yy	.	.	.	4C/	.	.	4G\)	.	4e-/yy	.
!	!	!	!	!	!	!	!	!LO:LB:g=original	!	!	!
=138	=138	=138	=138	=138	=138	=138	=138	=138	=138	=138	=138
*	*	*	*tremolo	*	*	*	*	*	*	*	*
!LO:TX:t=P:problem=mixed beam	!	!	!	!	!	!	!	!	!	!	!
8FF/L	4f 4A/	.	8aL 8f/	4.f/	4F\	-my	.	4A\	-my	4f/	.
8F\J	.	.	8a 8f/	.	.	.	.	.	.	.	.
*tremolo	*	*	*	*	*	*	*	*	*	*	*
8F\L	8r	.	8a 8f/	.	4r	.	.	4r	.	4r	.
8F\	16ff\LL	.	8a 8f/	16ff\LL	.	.	.	.	.	.	.
!	!LO:SIC:v:s=16een\JJ	!	!	!LO:SIC:v:s=16een\JJ	!	!	!	!	!	!	!
.	16ee-\JJ	.	.	16ee-\JJ	.	.	.	.	.	.	.
8F\	8ff\L	.	8a 8f/	8ff\L	4r	.	.	4r	.	4r	.
8F\J	8aa\J	.	8aJ 8f/	8aa\J	.	.	.	.	.	.	.
!	!	!	!	!	!LO:LB:g=original	!	!	!	!	!	!
=139	=139	=139	=139	=139	=139	=139	=139	=139	=139	=139	=139
8E-\L	4.ccc\	.	8aL 8e-X/	4.ccc\	0.r	.	.	0.r	.	0.r	.
8E-\	.	.	8a 8e-/	.	.	.	.	.	.	.	.
8E-\	.	.	8a 8e-/	.	.	.	.	.	.	.	.
8E-\	8ccc\L	.	8a 8e-/	8ccc\L	.	.	.	.	.	.	.
8E-\	8aa\	.	8a 8e-/	8aa\	.	.	.	.	.	.	.
8E-\J	8ff\J	.	8aJ 8e-/	8ff\J	.	.	.	.	.	.	.
=140	=140	=140	=140	=140	=140	=140	=140	=140	=140	=140	=140
.	16qqb-/	.	.	.	.	.	.	.	.	.	.
8D\L	4.bb-X\	.	8b-L 8d/	4.bb-\	.	.	.	.	.	.	.
8D\	.	.	8b- 8d/	.	.	.	.	.	.	.	.
8D\	.	.	8b- 8d/	.	.	.	.	.	.	.	.
.	8qqgg/	.	.	.	.	.	.	.	.	.	.
8D\	8ff\L	.	8b- 8d/	8ff\L	.	.	.	.	.	.	.
!	!	!	!	!LO:SIC:v:s=8qqeen/	!	!	!	!	!	!	!
.	8qqee-/	.	.	8qqee-/	.	.	.	.	.	.	.
8D\	8dd\	.	8b- 8d/	8dd\	.	.	.	.	.	.	.
.	8qqcc/	.	.	8qqcc/	.	.	.	.	.	.	.
8D\J	8b-\J	.	8b-J 8d/	8b-\J	.	.	.	.	.	.	.
*	*	*	*Xtremolo	*	*	*	*	*	*	*	*
=141	=141	=141	=141	=141	=141	=141	=141	=141	=141	=141	=141
.	16qqg/	.	.	.	.	.	.	.	.	.	.
8E-\L	4.gg\	.	8e-/L	4.gg\	.	.	.	.	.	.	.
8E-\	.	.	8g/	.	.	.	.	.	.	.	.
8E-\	.	.	8e-/	.	.	.	.	.	.	.	.
8E-\	8ee-\L	.	8g/	8ee-\L	.	.	.	.	.	.	.
*Xtremolo	*	*	*	*	*	*	*	*	*	*	*
8E-\	8cc 8e-\	.	8e-/	8cc\	.	.	.	.	.	.	.
8En\J	8b-J 8d\	.	8d/J	8b-\J	.	.	.	.	.	.	.
=142	=142	=142	=142	=142	=142	=142	=142	=142	=142	=142	=142
4F\	4b- 4d/	.	4d/	4b- 4d/	.	.	.	.	.	.	.
4FF/	4a 4c/	.	4c/	4a 4e-/	.	.	.	.	.	.	.
4r	4r	.	4r	4r	.	.	.	.	.	.	.
=143	=143	=143	=143	=143	=143	=143	=143	=143	=143	=143	=143
!	!	!	!LO:TX:a:t=31.	!LO:TX:a:t=31.	!	!	!	!	!	!	!
4BB-/	4dd 4b- 4f\	.	0.r	0.r	4B-\	W_po-	.	4f\	W_po-	4dd\	w_po-
4B-\	4dd 4a 4f\	.	.	.	4B-\	-srod	.	4f\	-srod	4dd\	-szrod
4B-\	4dd 4a 4f\	.	.	.	4B-\	plak	.	4f\	plag	4dd\	plak
.	16qqdd/LL	.	.	.	.	.	.	.	.	.	.
.	16qqff/JJ	.	.	.	.	.	.	.	.	.	.
!LO:LB:g=original	!LO:LB:g=original	!	!	!	!	!	!	!	!	!	!
=144	=144	=144	=144	=144	=144	=144	=144	=144	=144	=144	=144
4c\	4ee- 4cc 4f\	.	.	.	4c\	two-	.	4f\	two-	4ee-\	two-
4F\	4cc 4a 4f\	.	.	.	4A\	-ich	.	4f\	-ich	4cc\	-ich
4r	12b-L 12g/	.	.	.	4r	.	.	4r	.	4r	.
.	12cc 12a/	.	.	.	.	.	.	.	.	.	.
.	12ddJ 12b-/	.	.	.	.	.	.	.	.	.	.
=145	=145	=145	=145	=145	=145	=145	=145	=145	=145	=145	=145
*	*	*	*	*	*	*ij	*	*	*ij	*	*ij
4F\	4ee-\	.	.	.	4c\	W_po-	.	4A\	W_po-	4ee-\	w_po-
4A\	4ee-\	.	.	.	4c\	-srod	.	4A\	-szod	4ee-\	-szrod
4F\	4ee-\	.	.	.	4c\	plak	.	4A\	plag	4ee-\	plak
.	16qqee-/LL	.	.	.	.	.	.	.	.	.	.
.	16qqgg/JJ	.	.	.	.	.	.	.	.	.	.
=146	=146	=146	=146	=146	=146	=146	=146	=146	=146	=146	=146
.	8qqgg/	.	.	.	.	.	.	.	.	.	.
4B-\	4ff 4dd\	.	.	.	4d\	two-	.	4B-\	two-	4ff\	two-
4BB-/	4dd 4b-\	.	.	.	4B-\	-ich	.	4F\	-ich	4dd\	-ich
4r	12ccL 12a/	.	.	.	4r	.	.	4r	.	4r	.
.	12dd 12b-/	.	.	.	.	.	.	.	.	.	.
.	12ee-J 12cc/	.	.	.	.	.	.	.	.	.	.
!	!	!	!	!	!	!	!	!	!	!LO:LB:g=original	!
=147	=147	=147	=147	=147	=147	=147	=147	=147	=147	=147	=147
4DD/	4ff 4dd 4b-\	.	0.r	0.r	4B-\	W_po-	.	4d\	W_po-	4ff\	w_po-
4D\	8ffL 8dd 8b-\	.	.	.	8B-\	-srod	.	8d\	-srod	8ff\	-szrod
.	8ff 8dd 8b-\	.	.	.	8B-\	plak	.	8d\	plag	8ff\	plak
4D\	8ff 8dd 8b-\	.	.	.	8B-\	two-	.	8d\	two-	8ff\	two-
.	8ffJ 8dd 8b-\	.	.	.	8B-\	-ich	.	8d\	-ich	8ff\	-ich
*	*	*	*	*	*	*Xij	*	*	*Xij	*	*Xij
=148	=148	=148	=148	=148	=148	=148	=148	=148	=148	=148	=148
.	8qqg/	.	.	.	.	.	.	.	.	.	.
4EE-/	4.gg\	.	.	.	4.B-\	nie-	.	4.e-\	nie-	4.gg\	nie-
4E-\	.	.	.	.	.	.	.	.	.	.	.
.	8ee-\L	.	.	.	8B-\	-do-	.	8G/	-do-	8ee-\	-do-
4E-\	8cc\	.	.	.	8G\	-łę-	.	8e-\	-łę-	8cc\	-łę-
.	8b-\J	.	.	.	8G\	-znosc	.	8d\	-znosć	8b-\	-znosc
=149	=149	=149	=149	=149	=149	=149	=149	=149	=149	=149	=149
2F\	8b-/L	.	.	.	8F\	na-	.	8d\	na-	8b-\	na-
.	8a/	.	.	.	8F\	-sza	.	8c\	-sza	8a\	-sza
.	8a/	.	.	.	4F\	wiel-	.	4c\	wiel-	8a\L	wiel-
.	8cc/J	.	.	.	.	.	.	.	.	8cc\J	.
!	!LO:TX:t=P:problem=mixed beam	!	!	!	!	!	!	!	!	!LO:TX:t=P:problem=mixed beam	!
4FF/	8ff\L	.	.	.	8F\	-ce	.	8A\	-ce	8ff\L	-ce
.	8aJ 8c/	.	.	.	8F\	tru-	.	8c\	tru-	8f/J	tru-
!	!	!	!	!	!LO:LB:g=original	!	!	!LO:LB:g=original	!	!	!
=150	=150	=150	=150	=150	=150	=150	=150	=150	=150	=150	=150
4BB-/	8ccL 8e-/	.	.	.	4F\	-chle-	.	8e-\L	-chle-	8cc\L	-chle-
.	8b-J 8d/	.	.	.	.	.	.	8d\J	.	8b-\J	.
8B-\L	4b- 4d/	.	.	.	4BB-/	-ie	.	4d\	-ie	4b-\	-ie
8F\	.	.	.	.	.	.	.	.	.	.	.
8D\	4r	.	.	.	4r	.	.	4r	.	4r	.
8BB-\J	.	.	.	.	.	.	.	.	.	.	.
!LO:LB:g=original	!LO:LB:g=original	!	!	!	!	!	!	!	!	!LO:LB:g=original	!
=151	=151	=151	=151	=151	=151	=151	=151	=151	=151	=151	=151
!LO:TX:t=P:problem=mixed beam	!	!	!	!	!	!	!	!	!	!	!
8FF/L	4a 4c/	.	0.r	0.r	4F\	Wszak-	.	4c\	wszak-	4a\	wszak-
8F\	.	.	.	.	.	.	.	.	.	.	.
*tremolo	*	*	*	*	*	*	*	*	*	*	*
8F\	4a 4c/	.	.	.	4F\	-[że]	.	4c\	-ze	4a\	-ze
8F\	.	.	.	.	.	.	.	.	.	.	.
8F\	8aL 8c/	.	.	.	8F\	w_nie-	.	8c\	w_nie-	8a\	w_nie-
8F\J	8ccJ 8e-/	.	.	.	8F\	-pra-	.	8e-\	-pra-	8cc\	-pra-
*Xtremolo	*	*	*	*	*	*	*	*	*	*	*
=152	=152	=152	=152	=152	=152	=152	=152	=152	=152	=152	=152
!LO:TX:t=P:problem=mixed beam	!	!	!	!	!	!	!	!	!	!	!
8FF/L	8ccL 8e-/	.	.	.	4F\	-wos-	.	8e-\L	-wo-	8cc\L	-wo-
8F\	8b-J 8d/	.	.	.	.	.	.	8d\J	.	8b-\J	.
*tremolo	*	*	*	*	*	*	*	*	*	*	*
8F\	8b-L 8d/	.	.	.	4F\	-ci	.	4d\	-sci	4b-\	-sciach
8F\	8ff/	.	.	.	.	.	.	.	.	.	.
8F\	8ff/	.	.	.	4r	.	.	4r	.	4r	.
8F\J	8dd/J	.	.	.	.	.	.	.	.	.	.
*Xtremolo	*	*	*	*	*	*	*	*	*	*	*
=153	=153	=153	=153	=153	=153	=153	=153	=153	=153	=153	=153
*	*	*	*	*	*	*	*	*	*ij	*	*ij
!LO:TX:t=P:problem=mixed beam	!	!	!	!	!LO:TX:t=P:problem=takty 153-154 zapisane repetycją	!	!	!	!	!	!
8FF/L	4b- 4d/	.	.	.	4F\yy	Wszak-	.	4d\	wszak-	4b-\	wszak-
8F\J	.	.	.	.	.	.	.	.	.	.	.
*tremolo	*	*	*	*	*	*	*	*	*	*	*
8F\L	4b- 4d/	.	.	.	4F\yy	-[że]	.	4d\	-ze	4b-\	-ze
8F\	.	.	.	.	.	.	.	.	.	.	.
8F\	8b-L 8d/	.	.	.	8F\yy	w_nie-	.	8d\	w_nie-	8b-\L	w_nie-
8F\J	8ddJ 8b-/	.	.	.	8F\yy	-pra-	.	8B-\	-pra-	8dd\J	-pra-
*Xtremolo	*	*	*	*	*	*	*	*	*	*	*
=154	=154	=154	=154	=154	=154	=154	=154	=154	=154	=154	=154
!LO:TX:t=P:problem=mixed beam	!	!	!	!	!	!	!	!	!	!	!
8FF/L	8ddL 8b-\	.	.	.	4F\yy	-wos-	.	8B-\L	-wo-	8dd\L	-wo-
8F\J	8ccJ 8a\	.	.	.	.	.	.	8A\J	.	8cc\J	.
*tremolo	*	*	*	*	*	*	*	*	*	*	*
8F\L	8ccL 8a\	.	.	.	4F\yy	-ci	.	4A\	-sci	4cc\	-sciach
8F\	8ff 8dd\	.	.	.	.	.	.	.	.	.	.
8F\	8ff 8dd\	.	.	.	4ryy	.	.	4r	.	4r	.
8F\J	8ee-J 8cc\	.	.	.	.	.	.	.	.	.	.
*Xtremolo	*	*	*	*	*	*	*	*	*	*	*
!	!	!	!	!	!	!	!	!	!	!LO:LB:g=original	!
=155	=155	=155	=155	=155	=155	=155	=155	=155	=155	=155	=155
4F 4FF\	4cc 4a\	.	0.r	0.r	0.r	.	.	4A\	wszak-	4cc\	wszak-
4r	4dd 4b-\	.	.	.	.	.	.	4B-\	-ze	4dd\	-ze
4r	4ee- 4cc\	.	.	.	.	.	.	4c\	w_nie-	4ee-\	w_nie-
=156	=156	=156	=156	=156	=156	=156	=156	=156	=156	=156	=156
2BB-/	4ff 4dd\	.	.	.	.	.	.	4d\	-pra-	4ff\	-pra-
.	4gg 4ee-\	.	.	.	.	.	.	4e-\	-wo-	4gg\	-wo-
4D/	4aa-X 4ff\	.	.	.	.	.	.	4f\	-sci	4aa-X\	-sciach
*	*	*	*	*	*	*	*	*	*Xij	*	*Xij
=157	=157	=157	=157	=157	=157	=157	=157	=157	=157	=157	=157
2.E-\	4gg 4ee-\	.	.	.	.	.	.	4e-\	za-	4gg\	Ża-
.	4ff 4dd\	.	.	.	.	.	.	4d\	-dna	4ff\	-dna
!	!LO:TX:b:i:t=V&colon; C&colon;	!	!	!	!	!	!	!	!	!	!
.	4ee- 4cc\	.	.	.	.	.	.	4c\	sie	4ee-\	sie
!LO:PB:g=original	!LO:PB:g=original	!	!	!	!	!	!	!LO:LB:g=original	!	!	!
=158	=158	=158	=158	=158	=158	=158	=158	=158	=158	=158	=158
2.G\	4dd 4f/	.	.	.	.	.	.	4F/	od-	4dd\	od-
.	4ee- 4g/	.	.	.	.	.	.	4G/	-mia-	4ee-\	-mia-
.	4cc 4e-/	.	.	.	.	.	.	4E-/	-na	4cc\	-na
=159	=159	=159	=159	=159	=159	=159	=159	=159	=159	=159	=159
*tremolo	*	*	*	*	*	*	*	*	*	*	*
8F\L	2b- 2d/	.	0.r	0.r	2F\	nie	.	2D/	nie	2b-\	nie
8F\	.	.	.	.	.	.	.	.	.	.	.
8F\	.	.	.	.	.	.	.	.	.	.	.
8F\J	.	.	.	.	.	.	.	.	.	.	.
*Xtremolo	*	*	*	*	*	*	*	*	*	*	*
8FF/L	4a 4c/	.	.	.	4F\	dzie-	.	4C/	dzie-	4a\	dzie-
8FF/J	.	.	.	.	.	.	.	.	.	.	.
!	!	!	!	!	!	!	!	!	!	!LO:LB:g=original	!
=160	=160	=160	=160	=160	=160	=160	=160	=160	=160	=160	=160
!LO:TX:t=P:problem=mixed beam	!	!	!	!	!	!	!	!	!	!	!
8BB-/L	4b- 4d/	.	.	.	4B-\	-ie	.	4D/	-ie	4b-\	-ie
8B-\	.	.	.	.	.	.	.	.	.	.	.
8F\	4r	.	.	.	4r	.	.	4r	.	4r	.
8D\J	.	.	.	.	.	.	.	.	.	.	.
4BB-/	4r	.	.	.	4r	.	.	4r	.	4r	.
=161	=161	=161	=161	=161	=161	=161	=161	=161	=161	=161	=161
!LO:TX:t=P:problem=mixed beam	!	!	!	!	!	!	!	!	!	!	!
8FF/L	4a 4c/	.	.	.	4F\	Wszak	.	4c\	wszak-	4a\	wszak-
8F\J	.	.	.	.	.	.	.	.	.	.	.
*tremolo	*	*	*	*	*	*	*	*	*	*	*
8F\L	4a 4c/	.	.	.	4F\	-[że]	.	4c\	-ze	4a\	-ze
8F\	.	.	.	.	.	.	.	.	.	.	.
8F\	8aL 8c/	.	.	.	8F\	w_nie-	.	8c\	w_nie-	8a\	w_nie-
8F\J	8ccJ 8e-/	.	.	.	8F\	-pra-	.	8e-\	-pra-	8cc\	-pra-
*Xtremolo	*	*	*	*	*	*	*	*	*	*	*
=162	=162	=162	=162	=162	=162	=162	=162	=162	=162	=162	=162
!LO:TX:t=P:problem=mixed beam	!	!	!	!	!	!	!	!	!	!	!
8FF/L	8ccL 8e-/	.	.	.	4F\	-wos-	.	8e-\L	-wo-	8cc\L	-wo-
8F\J	8b-J 8d/	.	.	.	.	.	.	8d\J	.	8b-\J	.
*tremolo	*	*	*	*	*	*	*	*	*	*	*
8F\L	8b-L 8d/	.	.	.	4F\	-ci	.	4d\	-sci	4b-\	-sciach
8F\	8ff/	.	.	.	.	.	.	.	.	.	.
8F\	8ff/	.	.	.	4r	.	.	4r	.	4r	.
8F\J	8dd/J	.	.	.	.	.	.	.	.	.	.
*Xtremolo	*	*	*	*	*	*	*	*	*	*	*
=163	=163	=163	=163	=163	=163	=163	=163	=163	=163	=163	=163
*	*	*	*	*	*	*ij	*	*	*ij	*	*ij
!LO:TX:t=P:problem=mixed beam	!	!	!	!	!	!	!	!	!	!	!
8FF/L	4b- 4d/	.	0.r	0.r	4F\	Wszak-	.	4d\	wszak-	4b-\	wszak-
8F\J	.	.	.	.	.	.	.	.	.	.	.
*tremolo	*	*	*	*	*	*	*	*	*	*	*
8F\L	4b- 4d/	.	.	.	4F\	-[że]	.	4d\	-ze	4b-\	-ze
8F\	.	.	.	.	.	.	.	.	.	.	.
8F\	8b-L 8d/	.	.	.	8F\	w_nie-	.	8d\	w_nie-	8b-\L	w_nie-
8F\J	8ddJ 8b-/	.	.	.	8F\	-pra-	.	8B-\	-pra-	8dd\J	-pra-
*Xtremolo	*	*	*	*	*	*	*	*	*	*	*
!	!	!	!	!	!LO:LB:g=original	!	!	!	!	!	!
=164	=164	=164	=164	=164	=164	=164	=164	=164	=164	=164	=164
!LO:TX:t=P:problem=mixed beam	!	!	!	!	!	!	!	!	!	!	!
8FF/L	8ddL 8b-\	.	.	.	4F\	-wos-	.	8B-\L	-wo-	8dd\L	-wo-
8F\J	8ccJ 8a\	.	.	.	.	.	.	8A\J	.	8cc\J	.
*tremolo	*	*	*	*	*	*	*	*	*	*	*
8F\L	8ccL 8a\	.	.	.	4F\	-ci	.	4A\	-sci	4cc\	-sciach
*	*	*	*	*	*	*Xij	*	*	*Xij	*	*
8F\	8ff 8dd\	.	.	.	.	.	.	.	.	.	.
8F\	8ff 8dd\	.	.	.	4r	.	.	4r	.	4r	.
8F\J	8ee-J 8cc\	.	.	.	.	.	.	.	.	.	.
*Xtremolo	*	*	*	*	*	*	*	*	*	*	*
!LO:LB:g=original	!LO:LB:g=original	!	!	!	!	!	!	!	!	!LO:LB:g=original	!
=165	=165	=165	=165	=165	=165	=165	=165	=165	=165	=165	=165
4F 4FF\	4cc 4a\	.	.	.	0.r	.	.	4A\	wszak-	4cc\	wszak-
4r	4dd 4b-\	.	.	.	.	.	.	4B-\	-ze	4dd\	-ze
4r	4ee- 4cc\	.	.	.	.	.	.	4c\	w_nie-	4ee-\	w_nie-
!	!	!	!	!	!	!	!	!LO:LB:g=original	!	!	!
=166	=166	=166	=166	=166	=166	=166	=166	=166	=166	=166	=166
2BB-/	4ff 4dd\	.	.	.	.	.	.	4d\	-pra-	4ff\	-pra-
.	4gg 4ee-\	.	.	.	.	.	.	4e-\	-wo-	4gg\	-wo-
4D/	4aa-X 4ff\	.	.	.	.	.	.	4f\	-sci	4aa-X\	-sciach
*	*	*	*	*	*	*	*	*	*	*	*Xij
=167	=167	=167	=167	=167	=167	=167	=167	=167	=167	=167	=167
2.E-\	4gg 4ee-\	.	0.r	0.r	.	.	.	4e-\	za-	4gg\	Ża-
.	4ff 4dd\	.	.	.	.	.	.	4d\	-dna	4ff\	-dna
.	4ee- 4cc\	.	.	.	.	.	.	4c\	sie	4ee-\	sie
=168	=168	=168	=168	=168	=168	=168	=168	=168	=168	=168	=168
2.G\	4dd 4f/	.	.	.	.	.	.	4f\	od-	4dd\	od-
.	4ee- 4g/	.	.	.	.	.	.	4g\	-mia-	4ee-\	-mia-
.	4cc 4e-/	.	.	.	.	.	.	4e-\	-na	4cc\	-na
=169	=169	=169	=169	=169	=169	=169	=169	=169	=169	=169	=169
*tremolo	*	*	*	*	*	*	*	*	*	*	*
!LO:TX:t=P:problem=mixed beam	!	!	!	!	!	!	!	!	!	!	!
8F\L	2b- 2d/	.	.	.	2F\	nie	.	2d\	nie	2b-\	nie
8F\	.	.	.	.	.	.	.	.	.	.	.
8F\	.	.	.	.	.	.	.	.	.	.	.
8F\	.	.	.	.	.	.	.	.	.	.	.
*Xtremolo	*	*	*	*	*	*	*	*	*	*	*
8FF/	4a 4c/	.	.	.	8F\L	dzie-	.	4c\	dzie-	4a\	dzie-
8FF/J	.	.	.	.	16G\L	.	.	.	.	.	.
.	.	.	.	.	16A\JJ	.	.	.	.	.	.
=170	=170	=170	=170	=170	=170	=170	=170	=170	=170	=170	=170
8BB-/L	4b- 4d/	.	.	.	4B-\	-ie	.	4d\	-ie	4b-\	-ie
16C/L	.	.	.	.	.	.	.	.	.	.	.
16D/JJ	.	.	.	.	.	.	.	.	.	.	.
16E-\LL	4r	.	.	.	4r	.	.	4r	.	4r	.
16F\	.	.	.	.	.	.	.	.	.	.	.
16G\	.	.	.	.	.	.	.	.	.	.	.
16A\JJ	.	.	.	.	.	.	.	.	.	.	.
4B-\	4r	.	.	.	4r	.	.	4r	.	4r	.
!	!	!	!	!	!	!	!	!	!	!LO:LB:g=original	!
=171	=171	=171	=171	=171	=171	=171	=171	=171	=171	=171	=171
4f\	4ff\	.	1.r	1.r	4f\	za-	.	4f\	Ża-	4ff\	Ża-
4d\	4dd\	.	.	.	4d\	-dna	.	4d\	-dna	4dd\	-dna
4B-\	4b-\	.	.	.	4B-\	sie	.	4B-\	sie	4b-\	sie
=172	=172	=172	=172	=172	=172	=172	=172	=172	=172	=172	=172
4A\	4f/	.	.	.	4F\	od-	.	4F/	od-	4f/	od-
4F\	4d/	.	.	.	4D\	-mia-	.	4D/	-mia-	4d/	-mia-
4D\	4B-/	.	.	.	4BB-\	-na	.	4BB-/	-na	4B-/	-na
=173	=173	=173	=173	=173	=173	=173	=173	=173	=173	=173	=173
!LO:TX:t=P:problem=mixed beam	!	!	!	!	!	!	!	!	!	!	!
8FF/L	2dd 2b-\	.	2.r	2.r	2F\	nie	.	2B-\	nie	2dd\	nie
8F\J	.	.	.	.	.	.	.	.	.	.	.
*tremolo	*	*	*	*	*	*	*	*	*	*	*
8F\L	.	.	.	.	.	.	.	.	.	.	.
8F\	.	.	.	.	.	.	.	.	.	.	.
8F\	4cc 4a\	.	.	.	8F\L	dzie-	.	4A\	dzie-	4cc\	dzie-
8F\J	.	.	.	.	16G\L	.	.	.	.	.	.
.	.	.	.	.	16A\JJ	.	.	.	.	.	.
*Xtremolo	*	*	*	*	*	*	*	*	*	*	*
=174	=174	=174	=174	=174	=174	=174	=174	=174	=174	=174	=174
4BB-/	4b- 4d/	.	8d/L	4.b-\	4B-\	-ie	.	4B-\	-ie	4b-\	-ie
.	.	.	8f/	.	.	.	.	.	.	.	.
4B-\	8r	.	8d/	.	4r	.	.	4r	.	4r	.
.	8b-L 8f 8d/	.	8f/	8b-\L	.	.	.	.	.	.	.
4r	8b- 8f 8d/	.	8d/	8dd\	4r	.	.	4r	.	4r	.
.	8b-J 8f 8d/	.	8f/J	8ff\J	.	.	.	.	.	.	.
!LO:LB:g=original	!LO:LB:g=original	!	!	!	!	!	!	!LO:LB:g=original	!	!	!
=175	=175	=175	=175	=175	=175	=175	=175	=175	=175	=175	=175
!	!	!	!	!LO:TX:t=P:problem=mixed beam	!	!	!	!	!	!	!
4F 4FF\	8r	.	8e-/L	8ff\L	0.r	.	.	0.r	.	0.r	.
.	8aL 8e- 8c/	.	8f/	8a/J	.	.	.	.	.	.	.
*	*tremolo	*	*	*	*	*	*	*	*	*	*
4r	8a 8e- 8c/	.	8e-/	4.a/	.	.	.	.	.	.	.
.	8a 8e- 8c/	.	8f/	.	.	.	.	.	.	.	.
4r	8a 8e- 8c/	.	8e-/	.	.	.	.	.	.	.	.
.	8aJ 8e- 8c/	.	8f/J	8cc/	.	.	.	.	.	.	.
*	*Xtremolo	*	*	*	*	*	*	*	*	*	*
=176	=176	=176	=176	=176	=176	=176	=176	=176	=176	=176	=176
4B- 4BB-\	8r	.	8d/L	4.b-\	.	.	.	.	.	.	.
.	8b-L 8f 8d/	.	8f/	.	.	.	.	.	.	.	.
*	*tremolo	*	*	*	*	*	*	*	*	*	*
4r	8b- 8f 8d/	.	8d/	.	.	.	.	.	.	.	.
.	8b- 8f 8d/	.	8f/	8b-\L	.	.	.	.	.	.	.
4r	8b- 8f 8d/	.	8d/	8dd\	.	.	.	.	.	.	.
.	8b-J 8f 8d/	.	8f/J	8ff\J	.	.	.	.	.	.	.
*	*Xtremolo	*	*	*	*	*	*	*	*	*	*
!	!	!	!	!LO:LB:g=original	!	!	!	!	!	!	!
=177	=177	=177	=177	=177	=177	=177	=177	=177	=177	=177	=177
!	!	!	!	!LO:TX:t=P:problem=mixed beam	!	!	!	!	!	!	!
4F 4FF\	8r	.	8e-/L	8ff\L	.	.	.	.	.	.	.
.	8aL 8e- 8c/	.	8f/	8a/J	.	.	.	.	.	.	.
*	*tremolo	*	*	*	*	*	*	*	*	*	*
4r	8a 8e- 8c/	.	8e-/	4.a/	.	.	.	.	.	.	.
.	8a 8e- 8c/	.	8f/	.	.	.	.	.	.	.	.
4r	8a 8e- 8c/	.	8e-/	.	.	.	.	.	.	.	.
.	8aJ 8e- 8c/	.	8f/J	8cc/	.	.	.	.	.	.	.
*	*Xtremolo	*	*	*	*	*	*	*	*	*	*
=178	=178	=178	=178	=178	=178	=178	=178	=178	=178	=178	=178
8B-\L	8b-/	.	4f/	4b- 4d/	.	.	.	.	.	.	.
*clefG2	*	*	*	*	*	*	*	*	*	*	*
8bb-\	24ddd\LL	.	.	.	.	.	.	.	.	.	.
.	24eee-\	.	.	.	.	.	.	.	.	.	.
.	24ddd\JJ	.	.	.	.	.	.	.	.	.	.
8aa\	24ccc\LL	.	4r	4r	.	.	.	.	.	.	.
.	24ddd\	.	.	.	.	.	.	.	.	.	.
.	24ccc\JJ	.	.	.	.	.	.	.	.	.	.
8gg\	24bb-\LL	.	.	.	.	.	.	.	.	.	.
.	24ccc\	.	.	.	.	.	.	.	.	.	.
.	24bb-\JJ	.	.	.	.	.	.	.	.	.	.
8ff\	24aa\LL	.	4r	4r	.	.	.	.	.	.	.
.	24bb-\	.	.	.	.	.	.	.	.	.	.
.	24aa\JJ	.	.	.	.	.	.	.	.	.	.
8ee-\J	24gg\LL	.	.	.	.	.	.	.	.	.	.
.	24aa\	.	.	.	.	.	.	.	.	.	.
.	24gg\JJ	.	.	.	.	.	.	.	.	.	.
!	!	!	!LO:LB:g=original	!	!	!	!	!	!	!	!
=179	=179	=179	=179	=179	=179	=179	=179	=179	=179	=179	=179
8dd\L	8ff\	.	1.r	1.r	0.r	.	.	0.r	.	0.r	.
8gg\	24bb-\LL	.	.	.	.	.	.	.	.	.	.
.	24ccc\	.	.	.	.	.	.	.	.	.	.
.	24bb-\JJ	.	.	.	.	.	.	.	.	.	.
8ff\	24aa\LL	.	.	.	.	.	.	.	.	.	.
.	24bb-\	.	.	.	.	.	.	.	.	.	.
.	24aa\JJ	.	.	.	.	.	.	.	.	.	.
8ee-\	24gg\LL	.	.	.	.	.	.	.	.	.	.
.	24aa\	.	.	.	.	.	.	.	.	.	.
.	24gg\JJ	.	.	.	.	.	.	.	.	.	.
8dd\	24ff\LL	.	.	.	.	.	.	.	.	.	.
.	24gg\	.	.	.	.	.	.	.	.	.	.
.	24ff\JJ	.	.	.	.	.	.	.	.	.	.
8cc\J	24ee-\LL	.	.	.	.	.	.	.	.	.	.
.	24ff\	.	.	.	.	.	.	.	.	.	.
.	24ee-\JJ	.	.	.	.	.	.	.	.	.	.
!LO:LB:g=original	!LO:LB:g=original	!	!	!	!	!	!	!	!	!	!
=180	=180	=180	=180	=180	=180	=180	=180	=180	=180	=180	=180
4b-\	4dd\	.	.	.	.	.	.	.	.	.	.
*clefF4	*	*	*	*	*	*	*	*	*	*	*
4B-\	16b-\LL	.	.	.	.	.	.	.	.	.	.
.	16cc\	.	.	.	.	.	.	.	.	.	.
.	16dd\	.	.	.	.	.	.	.	.	.	.
.	16ee-\JJ	.	.	.	.	.	.	.	.	.	.
4r	16ff\LL	.	.	.	.	.	.	.	.	.	.
.	16gg\	.	.	.	.	.	.	.	.	.	.
.	16aa\	.	.	.	.	.	.	.	.	.	.
.	16bb-\JJ	.	.	.	.	.	.	.	.	.	.
=181	=181	=181	=181	=181	=181	=181	=181	=181	=181	=181	=181
*^	*	*	*	*	*	*	*	*	*	*	*
*tremolo	*	*	*	*	*	*	*	*	*	*	*	*
!	!	!LO:TX:t=P:problem=mixed beam	!	!	!	!	!	!	!	!	!	!
8d/L	8F\L	8bb-\L	.	8B-/L	8d/L	.	.	.	.	.	.	.
8d/	8F\	8b-/J	.	8B-/	8d/	.	.	.	.	.	.	.
*	*tremolo	*	*	*tremolo	*tremolo	*	*	*	*	*	*	*
8e-/	8F\	2b-T\	.	8c/	8e-/	.	.	.	.	.	.	.
8e-/	8F\	.	.	8c/	8e-/	.	.	.	.	.	.	.
8e-/	8F\	.	.	8c/	8e-/	.	.	.	.	.	.	.
8e-/J	8F\J	.	.	8c/J	8e-/J	.	.	.	.	.	.	.
*	*Xtremolo	*	*	*Xtremolo	*Xtremolo	*	*	*	*	*	*	*
*v	*v	*	*	*	*	*	*	*	*	*	*	*
=182	=182	=182	=182	=182	=182	=182	=182	=182	=182	=182	=182
!	!LO:TX:t=P:problem=takty nr 182-185 zapisane repetycją	!	!	!	!	!	!	!	!	!	!
8B-\Lyy	8b-/yy	.	4B-/	4b- 4d/	.	.	.	.	.	.	.
*clefG2	*	*	*	*	*	*	*	*	*	*	*
8bb-\y	24ddd\LLyy	.	.	.	.	.	.	.	.	.	.
.	24eee-\yy	.	.	.	.	.	.	.	.	.	.
.	24ddd\JJyy	.	.	.	.	.	.	.	.	.	.
8aa\yy	24ccc\LLyy	.	4r	4r	.	.	.	.	.	.	.
.	24ddd\yy	.	.	.	.	.	.	.	.	.	.
.	24ccc\JJyy	.	.	.	.	.	.	.	.	.	.
8gg\yy	24bb-\LLyy	.	.	.	.	.	.	.	.	.	.
.	24ccc\yy	.	.	.	.	.	.	.	.	.	.
.	24bb-\JJyy	.	.	.	.	.	.	.	.	.	.
8ff\yy	24aa\LLyy	.	4r	4r	.	.	.	.	.	.	.
.	24bb-\yy	.	.	.	.	.	.	.	.	.	.
.	24aa\JJyy	.	.	.	.	.	.	.	.	.	.
8ee-\Jyy	24gg\LLyy	.	.	.	.	.	.	.	.	.	.
.	24aa\yy	.	.	.	.	.	.	.	.	.	.
.	24gg\JJyy	.	.	.	.	.	.	.	.	.	.
=183	=183	=183	=183	=183	=183	=183	=183	=183	=183	=183	=183
8dd\Lyy	8ff\yy	.	1.r	1.r	0.r	.	.	0.r	.	0.r	.
8gg\yy	24bb-\LLyy	.	.	.	.	.	.	.	.	.	.
.	24ccc\yy	.	.	.	.	.	.	.	.	.	.
.	24bb-\JJyy	.	.	.	.	.	.	.	.	.	.
8ff\yy	24aa\LLyy	.	.	.	.	.	.	.	.	.	.
.	24bb-\yy	.	.	.	.	.	.	.	.	.	.
.	24aa\JJyy	.	.	.	.	.	.	.	.	.	.
8ee-\yy	24gg\LLyy	.	.	.	.	.	.	.	.	.	.
.	24aa\yy	.	.	.	.	.	.	.	.	.	.
.	24gg\JJyy	.	.	.	.	.	.	.	.	.	.
8dd\yy	24ff\LLyy	.	.	.	.	.	.	.	.	.	.
.	24gg\yy	.	.	.	.	.	.	.	.	.	.
.	24ff\JJyy	.	.	.	.	.	.	.	.	.	.
8cc\Jyy	24ee-\LLyy	.	.	.	.	.	.	.	.	.	.
.	24ff\yy	.	.	.	.	.	.	.	.	.	.
.	24ee-\JJyy	.	.	.	.	.	.	.	.	.	.
!LO:LB:g=original	!LO:LB:g=original	!	!	!	!	!	!	!	!	!	!
=184	=184	=184	=184	=184	=184	=184	=184	=184	=184	=184	=184
4b-\yy	4dd\yy	.	.	.	.	.	.	.	.	.	.
*clefF4	*	*	*	*	*	*	*	*	*	*	*
4B-\yy	16b-\LLyy	.	.	.	.	.	.	.	.	.	.
.	16cc\yy	.	.	.	.	.	.	.	.	.	.
.	16dd\yy	.	.	.	.	.	.	.	.	.	.
.	16ee-\JJyy	.	.	.	.	.	.	.	.	.	.
4ryy	16ff\LLyy	.	.	.	.	.	.	.	.	.	.
.	16gg\yy	.	.	.	.	.	.	.	.	.	.
.	16aa\yy	.	.	.	.	.	.	.	.	.	.
.	16bb-\JJyy	.	.	.	.	.	.	.	.	.	.
=185	=185	=185	=185	=185	=185	=185	=185	=185	=185	=185	=185
*^	*	*	*	*	*	*	*	*	*	*	*
*tremolo	*	*	*	*	*	*	*	*	*	*	*	*
!	!	!LO:TX:t=P:problem=mixed beam	!	!	!	!	!	!	!	!	!	!
8d/Lyy	8F\Lyy	8bb-\Lyy	.	8B-/L	8d/L	.	.	.	.	.	.	.
8d/yy	8F\yy	8b-/Jyy	.	8B-/	8d/	.	.	.	.	.	.	.
*	*tremolo	*	*	*tremolo	*tremolo	*	*	*	*	*	*	*
8e-/yy	8F\yy	2b-T\yy	.	8c/	8e-/	.	.	.	.	.	.	.
8e-/yy	8F\yy	.	.	8c/	8e-/	.	.	.	.	.	.	.
8e-/yy	8F\yy	.	.	8c/	8e-/	.	.	.	.	.	.	.
8e-/Jyy	8F\Jyy	.	.	8c/J	8e-/J	.	.	.	.	.	.	.
*	*Xtremolo	*	*	*Xtremolo	*Xtremolo	*	*	*	*	*	*	*
*v	*v	*	*	*	*	*	*	*	*	*	*	*
=186	=186	=186	=186	=186	=186	=186	=186	=186	=186	=186	=186
!	!	!	!	!LO:TX:t=P:problem=mixed beam	!	!	!	!	!	!	!
4d 4B-\	4b- 4f 4d/	.	8B-/L	8b-L 8d/	.	.	.	.	.	.	.
.	.	.	8d/	8bb-\	.	.	.	.	.	.	.
4r	4r	.	8f/	(8aa\	.	.	.	.	.	.	.
.	.	.	8d/	8bb-\)	.	.	.	.	.	.	.
4F 4FF\	4a 4e- 4c/	.	8e-/	(8gg\	.	.	.	.	.	.	.
.	.	.	8c/J	8aa\J)	.	.	.	.	.	.	.
=187	=187	=187	=187	=187	=187	=187	=187	=187	=187	=187	=187
!	!LO:SIC:v:n=1:s=4b-	!	!	!	!	!	!	!	!	!	!
4BB- 4BBB-/	4a 4f 4d/	.	8d/L	8bb-\L|	1.r	.	.	1.r	.	1.r	.
.	.	.	8f/	8bb-\|	.	.	.	.	.	.	.
4r	4r	.	8d/	(8aa\	.	.	.	.	.	.	.
.	.	.	8f/	8bb-\)	.	.	.	.	.	.	.
!	!LO:SIC:v:n=1:s=4a	!	!	!	!	!	!	!	!	!	!
4F 4FF/	4g 4e- 4c/	.	8e-/	(8gg\	.	.	.	.	.	.	.
.	.	.	8c/J	8aa\J)	.	.	.	.	.	.	.
=188	=188	=188	=188	=188	=188	=188	=188	=188	=188	=188	=188
!LO:TX:t=P:problem=mixed beam	!	!	!LO:TX:t=P:problem=mixed beam	!LO:TX:t=P:problem=mixed beam	!	!	!	!	!	!	!
8BB-/L	8b-/L	.	8B-/L	8bb-\L|	.	.	.	.	.	.	.
8B-\	8b-/	.	8b-\	8b-/|	.	.	.	.	.	.	.
8A\	8a/	.	8a\	8a/|	.	.	.	.	.	.	.
8B-\	8b-/	.	8b-\	8b-/|	.	.	.	.	.	.	.
8D\	8d/	.	8d\	8d/|	.	.	.	.	.	.	.
8F\J	8f/J	.	8f\J	8f/J|	.	.	.	.	.	.	.
=189	=189	=189	=189	=189	=189	=189	=189	=189	=189	=189	=189
!	!	!	!	!	!LO:TX:t=P:problem=brak pauzy 2.r	!	!	!LO:TX:t=P:problem=brak pauzy 2.r	!	!LO:TX:t=P:problem=brak pauzy 2.r	!
4BB-/	4B-/	.	4B-/	4B-/	2.ryy	.	.	2.ryy	.	2.ryy	.
4BBB-/	4B-/	.	4B-/	4b- 4d/	.	.	.	.	.	.	.
4r	4r	.	4r	4r	.	.	.	.	.	.	.
==	==	==	==	==	==	==	==	==	==	==	==
*-	*-	*-	*-	*-	*-	*-	*-	*-	*-	*-	*-
!!!system-decoration: [(g1)][(g2)]{(p6)}
!!!RDF**kern: > = above
!!!RDF**kern: < = below
!!!RDF**kern: | = vertical stroke
!!!ENC: Filip Voros
!!!END: 2021-11-25
!!!ENC: Andrzej Kubiczek
!!!END: 2021-12-07
